{
  "compressionlevel": -1,
  "width": 64,
  "height": 64,
  "tilewidth": 32,
  "tileheight": 32,
  "infinite": false,
  "orientation": "orthogonal",
  "renderorder": "right-down",
  "tiledversion": "1.10.0",
  "type": "map",
  "version": "1.10",
  "nextlayerid": 4,
  "nextobjectid": 1,
  "layers": [
    {
      "id": 1,
      "name": "Ground",
      "type": "tilelayer",
      "width": 64,
      "height": 64,
      "opacity": 1,
      "visible": true,
      "x": 0,
      "y": 0,
      "data": [
        3,
        1,
        4,
        1,
        1,
        2,
        1,
        1,
        1,
        1,
        1,
        1,
        3,
        4,
        3,
        4,
        2,
        2,
        1,
        2,
        3,
        1,
        1,
        1,
        2,
        1,
        2,
        1,
        1,
        4,
        1,
        8,
        5,
        6,
        3,
        1,
        1,
        4,
        2,
        1,
        1,
        1,
        3,
        1,
        2,
        4,
        2,
        1,
        1,
        1,
        3,
        3,
        1,
        1,
        1,
        1,
        1,
        1,
        1,
        1,
        4,
        1,
        3,
        3,
        1,
        4,
        1,
        4,
        1,
        2,
        1,
        1,
        1,
        1,
        1,
        1,
        4,
        1,
        4,
        1,
        3,
        1,
        1,
        1,
        1,
        1,
        1,
        1,
        1,
        3,
        1,
        2,
        2,
        2,
        2,
        5,
        6,
        7,
        2,
        1,
        3,
        2,
        1,
        3,
        2,
        3,
        1,
        1,
        1,
        2,
        1,
        1,
        1,
        1,
        2,
        2,
        1,
        2,
        1,
        3,
        3,
        1,
        3,
        1,
        1,
        4,
        4,
        2,
        2,
        3,
        3,
        1,
        1,
        1,
        1,
        1,
        1,
        4,
        1,
        1,
        3,
        3,
        4,
        1,
        2,
        1,
        4,
        1,
        1,
        4,
        1,
        2,
        3,
        2,
        1,
        4,
        1,
        1,
        3,
        6,
        7,
        8,
        1,
        1,
        1,
        1,
        2,
        2,
        2,
        1,
        1,
        3,
        1,
        4,
        2,
        2,
        2,
        1,
        1,
        1,
        2,
        4,
        1,
        3,
        3,
        1,
        1,
        1,
        3,
        1,
        1,
        3,
        1,
        2,
        1,
        2,
        3,
        1,
        1,
        1,
        1,
        4,
        1,
        2,
        1,
        2,
        1,
        1,
        1,
        2,
        1,
        1,
        1,
        3,
        1,
        1,
        1,
        1,
        1,
        1,
        1,
        1,
        3,
        7,
        8,
        5,
        3,
        1,
        3,
        1,
        3,
        3,
        2,
        1,
        3,
        1,
        1,
        1,
        1,
        1,
        1,
        1,
        3,
        1,
        1,
        4,
        1,
        1,
        1,
        3,
        1,
        1,
        4,
        4,
        1,
        4,
        1,
        2,
        1,
        1,
        4,
        1,
        1,
        1,
        1,
        2,
        3,
        2,
        1,
        1,
        1,
        1,
        1,
        3,
        4,
        3,
        1,
        4,
        1,
        4,
        2,
        4,
        1,
        1,
        1,
        1,
        1,
        8,
        5,
        6,
        2,
        1,
        2,
        4,
        1,
        3,
        4,
        2,
        4,
        1,
        1,
        2,
        1,
        1,
        1,
        2,
        4,
        1,
        1,
        1,
        1,
        3,
        1,
        1,
        3,
        1,
        1,
        2,
        1,
        1,
        2,
        2,
        1,
        1,
        3,
        2,
        3,
        3,
        1,
        3,
        4,
        1,
        2,
        3,
        1,
        3,
        3,
        1,
        2,
        1,
        1,
        2,
        2,
        1,
        1,
        1,
        1,
        2,
        2,
        3,
        1,
        5,
        6,
        7,
        1,
        2,
        3,
        2,
        1,
        1,
        1,
        1,
        1,
        2,
        4,
        1,
        1,
        1,
        1,
        2,
        3,
        1,
        1,
        3,
        2,
        1,
        3,
        1,
        3,
        1,
        3,
        1,
        1,
        1,
        4,
        2,
        2,
        1,
        3,
        1,
        2,
        3,
        2,
        1,
        1,
        3,
        1,
        3,
        4,
        1,
        2,
        2,
        1,
        1,
        1,
        1,
        2,
        3,
        1,
        3,
        1,
        1,
        4,
        4,
        3,
        6,
        7,
        8,
        3,
        1,
        3,
        1,
        1,
        1,
        1,
        2,
        1,
        2,
        1,
        2,
        1,
        1,
        1,
        1,
        1,
        2,
        4,
        1,
        1,
        1,
        3,
        1,
        1,
        1,
        3,
        2,
        2,
        2,
        3,
        1,
        1,
        1,
        4,
        2,
        4,
        3,
        1,
        2,
        1,
        1,
        4,
        1,
        1,
        1,
        1,
        2,
        1,
        4,
        2,
        3,
        3,
        1,
        3,
        1,
        2,
        2,
        1,
        1,
        1,
        7,
        8,
        5,
        2,
        1,
        1,
        3,
        2,
        1,
        2,
        1,
        2,
        1,
        2,
        2,
        1,
        1,
        1,
        1,
        1,
        1,
        1,
        1,
        1,
        2,
        2,
        1,
        1,
        1,
        1,
        1,
        2,
        1,
        1,
        3,
        1,
        1,
        1,
        4,
        1,
        4,
        1,
        1,
        2,
        1,
        3,
        2,
        1,
        1,
        1,
        1,
        1,
        1,
        2,
        2,
        1,
        1,
        1,
        2,
        1,
        4,
        1,
        1,
        1,
        8,
        5,
        6,
        1,
        3,
        4,
        1,
        4,
        4,
        3,
        2,
        2,
        1,
        1,
        1,
        1,
        1,
        3,
        3,
        1,
        1,
        1,
        1,
        2,
        1,
        1,
        1,
        1,
        4,
        2,
        1,
        1,
        3,
        4,
        1,
        1,
        1,
        3,
        3,
        2,
        4,
        1,
        3,
        1,
        1,
        1,
        1,
        2,
        3,
        4,
        1,
        2,
        1,
        1,
        2,
        1,
        1,
        1,
        1,
        3,
        1,
        1,
        1,
        2,
        5,
        6,
        7,
        1,
        1,
        1,
        3,
        1,
        3,
        1,
        4,
        3,
        2,
        1,
        1,
        1,
        4,
        1,
        1,
        1,
        1,
        1,
        2,
        1,
        1,
        2,
        4,
        2,
        1,
        1,
        4,
        2,
        2,
        4,
        2,
        1,
        1,
        4,
        1,
        2,
        3,
        3,
        4,
        2,
        1,
        2,
        3,
        1,
        1,
        1,
        2,
        2,
        1,
        3,
        3,
        2,
        1,
        4,
        3,
        1,
        1,
        1,
        1,
        2,
        6,
        7,
        8,
        1,
        2,
        1,
        1,
        1,
        2,
        1,
        1,
        1,
        2,
        1,
        3,
        1,
        4,
        2,
        1,
        3,
        1,
        1,
        1,
        4,
        2,
        1,
        1,
        2,
        1,
        1,
        2,
        1,
        1,
        1,
        3,
        1,
        2,
        4,
        1,
        1,
        1,
        1,
        1,
        1,
        3,
        4,
        1,
        2,
        1,
        1,
        1,
        3,
        2,
        1,
        2,
        4,
        1,
        1,
        1,
        3,
        1,
        1,
        1,
        1,
        7,
        8,
        5,
        1,
        1,
        1,
        1,
        4,
        2,
        3,
        3,
        1,
        2,
        1,
        3,
        1,
        2,
        1,
        1,
        2,
        2,
        1,
        1,
        3,
        3,
        2,
        2,
        2,
        1,
        1,
        1,
        1,
        4,
        3,
        4,
        1,
        4,
        1,
        1,
        4,
        1,
        1,
        1,
        1,
        1,
        1,
        1,
        3,
        2,
        2,
        1,
        1,
        1,
        1,
        1,
        1,
        2,
        2,
        1,
        2,
        2,
        2,
        1,
        1,
        8,
        5,
        6,
        2,
        1,
        1,
        1,
        1,
        2,
        1,
        4,
        1,
        1,
        4,
        1,
        4,
        3,
        2,
        4,
        1,
        1,
        2,
        1,
        2,
        1,
        1,
        1,
        2,
        1,
        2,
        3,
        1,
        1,
        1,
        1,
        1,
        1,
        2,
        2,
        2,
        1,
        1,
        1,
        1,
        1,
        1,
        1,
        1,
        1,
        1,
        1,
        1,
        3,
        1,
        2,
        4,
        2,
        1,
        3,
        1,
        1,
        3,
        1,
        2,
        5,
        6,
        7,
        1,
        2,
        1,
        1,
        3,
        3,
        1,
        3,
        1,
        1,
        3,
        1,
        1,
        1,
        1,
        1,
        3,
        1,
        1,
        2,
        1,
        2,
        1,
        3,
        1,
        3,
        3,
        1,
        1,
        3,
        4,
        1,
        1,
        1,
        4,
        3,
        4,
        1,
        1,
        3,
        1,
        3,
        2,
        2,
        1,
        2,
        1,
        1,
        1,
        1,
        2,
        1,
        1,
        1,
        2,
        1,
        1,
        1,
        1,
        3,
        2,
        6,
        7,
        8,
        1,
        1,
        3,
        4,
        2,
        1,
        1,
        1,
        1,
        1,
        1,
        1,
        1,
        2,
        2,
        1,
        1,
        1,
        1,
        2,
        1,
        2,
        3,
        3,
        1,
        1,
        4,
        2,
        3,
        1,
        1,
        1,
        2,
        3,
        2,
        3,
        1,
        4,
        1,
        1,
        2,
        1,
        3,
        1,
        1,
        1,
        1,
        4,
        1,
        1,
        1,
        1,
        3,
        1,
        3,
        1,
        1,
        3,
        2,
        3,
        2,
        7,
        8,
        5,
        4,
        3,
        3,
        2,
        1,
        3,
        1,
        1,
        1,
        1,
        1,
        1,
        1,
        1,
        1,
        1,
        1,
        1,
        1,
        2,
        1,
        1,
        3,
        1,
        1,
        1,
        1,
        2,
        1,
        2,
        1,
        2,
        4,
        1,
        1,
        2,
        2,
        1,
        4,
        2,
        1,
        1,
        1,
        1,
        2,
        2,
        1,
        3,
        3,
        4,
        1,
        2,
        2,
        3,
        4,
        3,
        1,
        4,
        3,
        3,
        1,
        8,
        5,
        6,
        1,
        1,
        1,
        1,
        3,
        1,
        2,
        4,
        1,
        1,
        3,
        1,
        1,
        4,
        3,
        3,
        1,
        2,
        2,
        1,
        3,
        1,
        1,
        3,
        2,
        1,
        1,
        2,
        1,
        1,
        1,
        4,
        2,
        2,
        3,
        1,
        1,
        1,
        1,
        1,
        1,
        1,
        2,
        1,
        1,
        1,
        1,
        1,
        2,
        4,
        1,
        1,
        1,
        1,
        3,
        1,
        1,
        1,
        2,
        2,
        1,
        5,
        6,
        7,
        2,
        1,
        3,
        3,
        3,
        3,
        1,
        3,
        1,
        4,
        2,
        1,
        2,
        4,
        1,
        3,
        1,
        1,
        2,
        1,
        4,
        2,
        1,
        1,
        1,
        1,
        2,
        3,
        3,
        3,
        3,
        1,
        4,
        2,
        3,
        1,
        2,
        1,
        4,
        1,
        3,
        2,
        1,
        3,
        4,
        1,
        3,
        1,
        2,
        1,
        1,
        1,
        2,
        1,
        1,
        1,
        3,
        4,
        1,
        3,
        1,
        6,
        7,
        8,
        3,
        1,
        1,
        1,
        1,
        3,
        1,
        1,
        1,
        2,
        2,
        2,
        1,
        1,
        3,
        2,
        1,
        2,
        2,
        2,
        1,
        1,
        1,
        1,
        2,
        1,
        1,
        1,
        1,
        1,
        1,
        1,
        1,
        3,
        1,
        1,
        1,
        1,
        4,
        1,
        3,
        2,
        1,
        4,
        2,
        3,
        4,
        1,
        2,
        1,
        1,
        4,
        1,
        1,
        1,
        1,
        2,
        4,
        1,
        1,
        1,
        7,
        8,
        5,
        1,
        2,
        2,
        1,
        2,
        1,
        1,
        2,
        3,
        2,
        1,
        2,
        1,
        1,
        3,
        1,
        3,
        2,
        1,
        4,
        1,
        1,
        1,
        4,
        4,
        3,
        1,
        3,
        1,
        1,
        1,
        1,
        4,
        2,
        1,
        3,
        1,
        1,
        1,
        4,
        1,
        3,
        2,
        1,
        4,
        4,
        3,
        3,
        1,
        2,
        1,
        1,
        1,
        4,
        2,
        1,
        1,
        2,
        3,
        2,
        1,
        8,
        5,
        6,
        1,
        1,
        1,
        2,
        1,
        1,
        3,
        1,
        4,
        1,
        2,
        1,
        1,
        1,
        3,
        4,
        2,
        4,
        1,
        2,
        1,
        1,
        1,
        2,
        4,
        1,
        1,
        1,
        1,
        3,
        1,
        1,
        1,
        3,
        3,
        3,
        1,
        4,
        3,
        1,
        3,
        3,
        4,
        1,
        1,
        3,
        3,
        1,
        1,
        2,
        2,
        2,
        4,
        1,
        1,
        1,
        1,
        1,
        2,
        3,
        4,
        5,
        6,
        7,
        1,
        2,
        1,
        1,
        3,
        1,
        1,
        1,
        1,
        1,
        1,
        2,
        1,
        3,
        3,
        2,
        1,
        1,
        2,
        4,
        1,
        1,
        1,
        4,
        4,
        3,
        1,
        1,
        2,
        1,
        4,
        3,
        2,
        1,
        3,
        2,
        3,
        1,
        3,
        3,
        1,
        1,
        3,
        1,
        4,
        1,
        1,
        3,
        1,
        2,
        1,
        3,
        2,
        1,
        4,
        1,
        1,
        1,
        1,
        3,
        2,
        6,
        7,
        8,
        1,
        1,
        4,
        1,
        1,
        1,
        1,
        2,
        1,
        1,
        1,
        1,
        1,
        1,
        1,
        1,
        1,
        4,
        2,
        2,
        1,
        1,
        2,
        3,
        3,
        3,
        1,
        1,
        2,
        1,
        1,
        1,
        1,
        1,
        3,
        2,
        3,
        3,
        1,
        2,
        1,
        1,
        1,
        1,
        4,
        1,
        1,
        1,
        3,
        2,
        2,
        2,
        1,
        1,
        3,
        4,
        2,
        1,
        1,
        1,
        2,
        7,
        8,
        5,
        2,
        1,
        1,
        3,
        1,
        2,
        1,
        3,
        3,
        1,
        3,
        1,
        3,
        2,
        4,
        1,
        1,
        2,
        3,
        4,
        1,
        3,
        1,
        2,
        3,
        1,
        3,
        1,
        3,
        3,
        1,
        2,
        1,
        1,
        1,
        1,
        1,
        2,
        2,
        3,
        2,
        2,
        4,
        2,
        2,
        1,
        3,
        1,
        1,
        2,
        1,
        1,
        3,
        3,
        1,
        1,
        1,
        2,
        4,
        1,
        1,
        8,
        5,
        6,
        2,
        1,
        1,
        2,
        1,
        4,
        1,
        1,
        1,
        4,
        1,
        1,
        1,
        1,
        1,
        1,
        1,
        2,
        1,
        1,
        1,
        1,
        1,
        2,
        2,
        2,
        1,
        1,
        3,
        1,
        1,
        4,
        1,
        1,
        2,
        1,
        1,
        1,
        1,
        1,
        1,
        1,
        1,
        1,
        1,
        3,
        4,
        3,
        1,
        1,
        3,
        1,
        1,
        3,
        2,
        1,
        1,
        4,
        1,
        4,
        1,
        5,
        6,
        7,
        1,
        1,
        4,
        1,
        2,
        1,
        2,
        1,
        1,
        4,
        3,
        1,
        3,
        1,
        1,
        1,
        2,
        1,
        1,
        2,
        3,
        1,
        1,
        1,
        4,
        3,
        2,
        2,
        1,
        1,
        1,
        3,
        1,
        1,
        1,
        1,
        1,
        1,
        1,
        3,
        4,
        3,
        1,
        1,
        1,
        1,
        4,
        1,
        1,
        1,
        1,
        1,
        2,
        2,
        4,
        1,
        7,
        7,
        7,
        7,
        7,
        7,
        7,
        7,
        7,
        7,
        7,
        7,
        1,
        1,
        1,
        2,
        2,
        2,
        2,
        1,
        3,
        1,
        1,
        1,
        1,
        1,
        3,
        1,
        3,
        1,
        1,
        1,
        2,
        1,
        1,
        2,
        1,
        1,
        1,
        2,
        1,
        2,
        2,
        3,
        1,
        1,
        1,
        1,
        4,
        3,
        3,
        1,
        1,
        2,
        1,
        1,
        1,
        1,
        1,
        2,
        2,
        1,
        1,
        1,
        7,
        7,
        7,
        7,
        7,
        7,
        7,
        7,
        7,
        7,
        7,
        7,
        1,
        1,
        2,
        1,
        2,
        1,
        2,
        1,
        1,
        4,
        1,
        2,
        1,
        1,
        1,
        1,
        3,
        3,
        4,
        1,
        1,
        2,
        2,
        1,
        2,
        1,
        2,
        1,
        1,
        1,
        1,
        1,
        1,
        4,
        3,
        1,
        2,
        1,
        1,
        2,
        2,
        1,
        2,
        3,
        1,
        3,
        1,
        2,
        2,
        4,
        1,
        2,
        7,
        7,
        7,
        7,
        7,
        7,
        7,
        7,
        7,
        7,
        7,
        7,
        1,
        1,
        3,
        2,
        1,
        1,
        2,
        1,
        2,
        1,
        1,
        2,
        1,
        1,
        1,
        1,
        2,
        1,
        3,
        1,
        4,
        1,
        1,
        3,
        1,
        1,
        1,
        3,
        1,
        1,
        1,
        1,
        1,
        1,
        3,
        1,
        2,
        2,
        1,
        2,
        3,
        1,
        1,
        1,
        1,
        1,
        1,
        1,
        3,
        2,
        2,
        4,
        7,
        7,
        7,
        7,
        7,
        7,
        7,
        7,
        7,
        7,
        7,
        7,
        3,
        3,
        1,
        1,
        1,
        1,
        4,
        1,
        2,
        3,
        3,
        1,
        1,
        3,
        1,
        1,
        3,
        3,
        1,
        1,
        3,
        1,
        2,
        1,
        3,
        1,
        1,
        3,
        2,
        1,
        3,
        1,
        1,
        1,
        4,
        1,
        1,
        3,
        1,
        2,
        1,
        2,
        2,
        1,
        2,
        2,
        1,
        1,
        1,
        1,
        3,
        2,
        7,
        7,
        7,
        7,
        7,
        7,
        7,
        7,
        7,
        7,
        7,
        7,
        4,
        1,
        2,
        1,
        1,
        1,
        4,
        1,
        1,
        2,
        3,
        4,
        2,
        2,
        1,
        1,
        1,
        1,
        1,
        1,
        4,
        1,
        1,
        1,
        2,
        1,
        8,
        5,
        6,
        7,
        8,
        5,
        6,
        7,
        8,
        5,
        6,
        7,
        8,
        5,
        6,
        7,
        8,
        5,
        6,
        7,
        8,
        5,
        6,
        7,
        8,
        5,
        7,
        7,
        7,
        7,
        7,
        7,
        7,
        7,
        7,
        7,
        7,
        7,
        6,
        7,
        8,
        5,
        6,
        7,
        8,
        5,
        6,
        7,
        8,
        5,
        6,
        7,
        8,
        5,
        6,
        7,
        8,
        5,
        6,
        7,
        8,
        5,
        6,
        7,
        5,
        6,
        7,
        8,
        5,
        6,
        7,
        8,
        5,
        6,
        7,
        8,
        5,
        6,
        7,
        8,
        5,
        6,
        7,
        8,
        5,
        6,
        7,
        8,
        5,
        6,
        7,
        7,
        7,
        7,
        7,
        7,
        7,
        7,
        7,
        7,
        7,
        7,
        7,
        8,
        5,
        6,
        7,
        8,
        5,
        6,
        7,
        8,
        5,
        6,
        7,
        8,
        5,
        6,
        7,
        8,
        5,
        6,
        7,
        8,
        5,
        6,
        7,
        8,
        6,
        7,
        8,
        5,
        6,
        7,
        8,
        5,
        6,
        7,
        8,
        5,
        6,
        7,
        8,
        5,
        6,
        7,
        8,
        5,
        6,
        7,
        8,
        5,
        6,
        7,
        7,
        7,
        7,
        7,
        7,
        7,
        7,
        7,
        7,
        7,
        7,
        7,
        8,
        5,
        6,
        7,
        8,
        5,
        6,
        7,
        8,
        5,
        6,
        7,
        8,
        5,
        6,
        7,
        8,
        5,
        6,
        7,
        8,
        5,
        6,
        7,
        8,
        5,
        3,
        3,
        3,
        1,
        1,
        2,
        1,
        4,
        1,
        2,
        3,
        3,
        1,
        1,
        1,
        2,
        1,
        1,
        1,
        3,
        1,
        1,
        1,
        1,
        1,
        1,
        7,
        7,
        7,
        7,
        7,
        7,
        7,
        7,
        7,
        7,
        7,
        7,
        1,
        3,
        1,
        1,
        1,
        1,
        1,
        1,
        1,
        1,
        2,
        1,
        1,
        3,
        1,
        4,
        1,
        1,
        1,
        4,
        2,
        1,
        3,
        1,
        1,
        1,
        1,
        1,
        1,
        4,
        1,
        1,
        1,
        2,
        1,
        1,
        1,
        1,
        1,
        3,
        1,
        1,
        1,
        1,
        4,
        3,
        1,
        1,
        1,
        2,
        2,
        1,
        7,
        7,
        7,
        7,
        7,
        7,
        7,
        7,
        7,
        7,
        7,
        7,
        2,
        1,
        3,
        4,
        3,
        3,
        1,
        1,
        2,
        1,
        1,
        3,
        2,
        1,
        3,
        1,
        1,
        3,
        3,
        2,
        2,
        1,
        3,
        1,
        1,
        2,
        1,
        4,
        2,
        1,
        1,
        4,
        1,
        3,
        1,
        1,
        3,
        2,
        1,
        1,
        3,
        2,
        3,
        1,
        4,
        2,
        3,
        2,
        1,
        2,
        1,
        1,
        7,
        7,
        7,
        7,
        7,
        7,
        7,
        7,
        7,
        7,
        7,
        7,
        1,
        3,
        2,
        1,
        1,
        2,
        1,
        3,
        3,
        1,
        1,
        1,
        1,
        1,
        1,
        1,
        3,
        1,
        1,
        1,
        3,
        2,
        4,
        4,
        2,
        4,
        2,
        1,
        2,
        1,
        1,
        1,
        1,
        2,
        1,
        2,
        1,
        1,
        4,
        1,
        1,
        1,
        3,
        1,
        1,
        4,
        3,
        1,
        2,
        1,
        3,
        2,
        7,
        7,
        7,
        7,
        7,
        7,
        7,
        7,
        7,
        7,
        7,
        7,
        1,
        3,
        1,
        1,
        1,
        2,
        2,
        1,
        3,
        1,
        4,
        2,
        2,
        1,
        1,
        3,
        2,
        1,
        1,
        1,
        2,
        1,
        1,
        1,
        3,
        2,
        2,
        3,
        3,
        3,
        2,
        1,
        1,
        2,
        1,
        2,
        1,
        1,
        1,
        3,
        1,
        1,
        3,
        4,
        1,
        2,
        2,
        3,
        2,
        4,
        1,
        1,
        1,
        4,
        1,
        2,
        1,
        6,
        7,
        8,
        2,
        1,
        3,
        1,
        1,
        3,
        2,
        2,
        1,
        1,
        3,
        1,
        1,
        4,
        2,
        1,
        2,
        1,
        2,
        1,
        1,
        3,
        3,
        3,
        1,
        1,
        4,
        2,
        1,
        1,
        3,
        1,
        2,
        2,
        1,
        4,
        1,
        1,
        3,
        1,
        1,
        2,
        1,
        4,
        2,
        1,
        1,
        2,
        2,
        1,
        2,
        1,
        1,
        1,
        1,
        3,
        1,
        3,
        3,
        1,
        3,
        7,
        8,
        5,
        1,
        2,
        1,
        2,
        2,
        1,
        4,
        3,
        2,
        2,
        1,
        1,
        1,
        4,
        1,
        4,
        4,
        3,
        1,
        2,
        2,
        2,
        1,
        2,
        2,
        1,
        1,
        1,
        2,
        1,
        1,
        2,
        3,
        1,
        1,
        4,
        1,
        1,
        1,
        2,
        1,
        4,
        1,
        1,
        2,
        1,
        2,
        1,
        2,
        1,
        1,
        1,
        3,
        1,
        1,
        1,
        2,
        2,
        1,
        1,
        2,
        8,
        5,
        6,
        2,
        2,
        3,
        1,
        2,
        2,
        1,
        1,
        3,
        1,
        3,
        1,
        2,
        1,
        1,
        1,
        1,
        4,
        2,
        2,
        3,
        3,
        3,
        3,
        1,
        1,
        1,
        2,
        1,
        1,
        1,
        1,
        1,
        1,
        1,
        1,
        1,
        1,
        2,
        1,
        4,
        3,
        1,
        1,
        1,
        1,
        1,
        3,
        2,
        3,
        1,
        1,
        1,
        2,
        1,
        1,
        2,
        1,
        1,
        2,
        1,
        5,
        6,
        7,
        1,
        1,
        4,
        2,
        2,
        4,
        1,
        3,
        3,
        1,
        1,
        1,
        1,
        2,
        1,
        2,
        4,
        1,
        1,
        3,
        1,
        1,
        2,
        2,
        1,
        4,
        1,
        3,
        1,
        1,
        4,
        1,
        1,
        1,
        1,
        1,
        1,
        1,
        1,
        4,
        2,
        1,
        1,
        1,
        4,
        1,
        2,
        1,
        2,
        1,
        1,
        3,
        1,
        1,
        3,
        1,
        2,
        1,
        2,
        2,
        1,
        6,
        7,
        8,
        1,
        4,
        1,
        2,
        4,
        1,
        2,
        2,
        2,
        3,
        2,
        4,
        1,
        1,
        2,
        3,
        2,
        1,
        2,
        2,
        1,
        1,
        2,
        2,
        2,
        2,
        1,
        4,
        2,
        1,
        1,
        1,
        1,
        2,
        4,
        2,
        4,
        1,
        2,
        1,
        1,
        4,
        2,
        2,
        3,
        4,
        1,
        2,
        2,
        3,
        3,
        1,
        1,
        3,
        1,
        4,
        1,
        3,
        2,
        1,
        2,
        7,
        8,
        5,
        1,
        3,
        1,
        4,
        1,
        4,
        1,
        1,
        1,
        1,
        2,
        1,
        1,
        1,
        1,
        1,
        2,
        3,
        4,
        3,
        2,
        1,
        2,
        1,
        1,
        1,
        1,
        3,
        4,
        1,
        1,
        1,
        1,
        1,
        3,
        2,
        1,
        4,
        1,
        1,
        3,
        4,
        1,
        1,
        2,
        1,
        1,
        1,
        2,
        1,
        3,
        2,
        1,
        1,
        1,
        3,
        1,
        1,
        1,
        1,
        4,
        8,
        5,
        6,
        1,
        1,
        2,
        1,
        1,
        1,
        1,
        1,
        1,
        2,
        2,
        3,
        1,
        2,
        2,
        3,
        1,
        2,
        1,
        1,
        3,
        1,
        4,
        2,
        1,
        2,
        3,
        1,
        3,
        2,
        1,
        3,
        1,
        2,
        1,
        2,
        1,
        1,
        2,
        2,
        1,
        1,
        1,
        1,
        1,
        1,
        3,
        1,
        1,
        4,
        1,
        1,
        3,
        2,
        1,
        4,
        2,
        1,
        2,
        1,
        1,
        5,
        6,
        7,
        3,
        4,
        4,
        4,
        1,
        3,
        1,
        1,
        1,
        2,
        1,
        4,
        4,
        2,
        3,
        3,
        1,
        1,
        2,
        1,
        2,
        4,
        4,
        1,
        4,
        1,
        3,
        1,
        1,
        1,
        1,
        2,
        2,
        1,
        1,
        3,
        1,
        3,
        1,
        3,
        1,
        3,
        1,
        1,
        1,
        2,
        3,
        3,
        1,
        3,
        1,
        1,
        1,
        1,
        1,
        1,
        4,
        2,
        1,
        1,
        3,
        6,
        7,
        8,
        1,
        1,
        1,
        2,
        3,
        1,
        1,
        1,
        3,
        1,
        1,
        1,
        2,
        1,
        1,
        1,
        1,
        1,
        3,
        1,
        1,
        2,
        1,
        1,
        1,
        2,
        1,
        2,
        4,
        4,
        3,
        1,
        1,
        3,
        4,
        3,
        1,
        1,
        4,
        1,
        2,
        1,
        3,
        2,
        3,
        3,
        1,
        1,
        3,
        2,
        1,
        1,
        1,
        4,
        2,
        1,
        2,
        1,
        3,
        4,
        1,
        7,
        8,
        5,
        1,
        3,
        2,
        2,
        1,
        2,
        1,
        1,
        3,
        1,
        1,
        3,
        1,
        2,
        4,
        2,
        1,
        2,
        2,
        1,
        2,
        1,
        1,
        3,
        2,
        1,
        4,
        1,
        4,
        1,
        1,
        1,
        1,
        2,
        3,
        2,
        3,
        2,
        1,
        1,
        1,
        4,
        2,
        4,
        4,
        1,
        1,
        3,
        1,
        4,
        3,
        1,
        3,
        1,
        3,
        3,
        4,
        1,
        4,
        1,
        2,
        8,
        5,
        6,
        3,
        1,
        1,
        1,
        1,
        1,
        4,
        1,
        2,
        3,
        2,
        3,
        2,
        1,
        2,
        2,
        3,
        2,
        1,
        1,
        1,
        3,
        1,
        2,
        4,
        2,
        2,
        4,
        1,
        1,
        1,
        4,
        1,
        1,
        2,
        1,
        1,
        2,
        3,
        1,
        1,
        1,
        3,
        1,
        1,
        3,
        1,
        3,
        2,
        3,
        1,
        3,
        1,
        2,
        2,
        3,
        2,
        1,
        1,
        2,
        2,
        5,
        6,
        7,
        3,
        1,
        1,
        1,
        3,
        1,
        1,
        4,
        2,
        3,
        1,
        1,
        1,
        4,
        1,
        4,
        2,
        1,
        1,
        2,
        1,
        1,
        1,
        3,
        2,
        1,
        2,
        3,
        3,
        2,
        1,
        1,
        4,
        1,
        1,
        1,
        1,
        3,
        3,
        2,
        3,
        1,
        1,
        1,
        2,
        2,
        1,
        1,
        4,
        1,
        1,
        1,
        2,
        3,
        1,
        1,
        1,
        1,
        1,
        1,
        1,
        6,
        7,
        8,
        2,
        1,
        2,
        2,
        4,
        1,
        4,
        1,
        1,
        1,
        1,
        2,
        2,
        2,
        3,
        2,
        1,
        1,
        3,
        1,
        1,
        2,
        1,
        1,
        1,
        3,
        1,
        1,
        1,
        4,
        3,
        2,
        1,
        2,
        3,
        3,
        1,
        4,
        3,
        1,
        2,
        1,
        1,
        1,
        1,
        1,
        1,
        1,
        4,
        2,
        1,
        2,
        1,
        1,
        1,
        2,
        1,
        1,
        3,
        1,
        1,
        7,
        8,
        5,
        4,
        1,
        1,
        2,
        1,
        1,
        3,
        3,
        1,
        1,
        2,
        1,
        1,
        1,
        1,
        2,
        1,
        2,
        2,
        1,
        1,
        1,
        1,
        1,
        1,
        1,
        1,
        2,
        4,
        3,
        1,
        3,
        1,
        3,
        1,
        1,
        1,
        1,
        4,
        1,
        1,
        2,
        2,
        1,
        1,
        1,
        1,
        1,
        1,
        1,
        1,
        3,
        2,
        3,
        1,
        1,
        3,
        3,
        3,
        1,
        3,
        8,
        5,
        6,
        1,
        1,
        4,
        3,
        1,
        3,
        1,
        1,
        1,
        1,
        1,
        1,
        2,
        3,
        1,
        3,
        2,
        2,
        1,
        1,
        2,
        1,
        2,
        2,
        1,
        3,
        4,
        4,
        1,
        4,
        1,
        1,
        1,
        4,
        1,
        3,
        1,
        3,
        1,
        2,
        1,
        1,
        2,
        1,
        1,
        2,
        2,
        1,
        3,
        1,
        1,
        3,
        3,
        3,
        1,
        1,
        1,
        4,
        3,
        1,
        3,
        5,
        6,
        7,
        1,
        2,
        1,
        2,
        1,
        3,
        1,
        3,
        3,
        1,
        2,
        1,
        1,
        3,
        4,
        2,
        3,
        2,
        2,
        4,
        2,
        3,
        3,
        2,
        2,
        2,
        2,
        1,
        1,
        1,
        2,
        1,
        4,
        2,
        3,
        1,
        4,
        1,
        1,
        3,
        2,
        1,
        4,
        1,
        1,
        1,
        1,
        1,
        3,
        3,
        3,
        2,
        4,
        1,
        1,
        1,
        1,
        3,
        1,
        3,
        1,
        6,
        7,
        8,
        3,
        1,
        1,
        1,
        2,
        2,
        3,
        2,
        1,
        1,
        1,
        2,
        3,
        1,
        1,
        4,
        1,
        1,
        4,
        1,
        1,
        1,
        1,
        1,
        2,
        3,
        1,
        1,
        1,
        1,
        1,
        4,
        1,
        1,
        2,
        1,
        1,
        3,
        1,
        2,
        1,
        1,
        1,
        3,
        1,
        1,
        1,
        1,
        2,
        1,
        1,
        4,
        3,
        2,
        1,
        1,
        1,
        3,
        2,
        3,
        1,
        7,
        8,
        5,
        1,
        4,
        1,
        2,
        1,
        1,
        1,
        1,
        1,
        1,
        4,
        3,
        1,
        1,
        3,
        2,
        1,
        1,
        1,
        1,
        1,
        3,
        4,
        2,
        1,
        3,
        1,
        2,
        2,
        3,
        2,
        3,
        1,
        2,
        3,
        1,
        3,
        4,
        1,
        4,
        2,
        4,
        1,
        1,
        3,
        1,
        1,
        2,
        4,
        1,
        3,
        1,
        1,
        2,
        1,
        1,
        1,
        4,
        1,
        1,
        1,
        8,
        5,
        6,
        4,
        1,
        1,
        2,
        1,
        4,
        1,
        1,
        1,
        2,
        1,
        4,
        3,
        1,
        1,
        4,
        1,
        2,
        1,
        1,
        1,
        3,
        1,
        1,
        1,
        1,
        1,
        3,
        1,
        3,
        1,
        1,
        3,
        1,
        2,
        3,
        4,
        3,
        1,
        1,
        2,
        1,
        4,
        2,
        4,
        4,
        1,
        2,
        2,
        1,
        1,
        1,
        1,
        4,
        1,
        53,
        53,
        53,
        53,
        53,
        53,
        53,
        53,
        53,
        53,
        53,
        53,
        53,
        53,
        53,
        2,
        4,
        1,
        2,
        1,
        1,
        2,
        3,
        1,
        3,
        1,
        1,
        2,
        4,
        1,
        2,
        2,
        1,
        3,
        4,
        2,
        1,
        1,
        1,
        2,
        4,
        2,
        3,
        2,
        4,
        1,
        1,
        1,
        1,
        1,
        1,
        1,
        3,
        3,
        1,
        4,
        3,
        1,
        1,
        2,
        3,
        2,
        2,
        3,
        53,
        53,
        53,
        53,
        53,
        53,
        53,
        53,
        53,
        53,
        53,
        53,
        53,
        53,
        53,
        2,
        1,
        1,
        1,
        1,
        1,
        2,
        1,
        1,
        1,
        3,
        2,
        1,
        1,
        4,
        1,
        2,
        1,
        1,
        1,
        1,
        2,
        1,
        2,
        4,
        1,
        1,
        3,
        2,
        3,
        3,
        4,
        2,
        1,
        1,
        1,
        1,
        2,
        3,
        3,
        4,
        4,
        1,
        2,
        1,
        1,
        1,
        2,
        1,
        53,
        53,
        53,
        53,
        53,
        53,
        53,
        53,
        53,
        53,
        53,
        53,
        53,
        53,
        53,
        1,
        2,
        1,
        3,
        1,
        2,
        3,
        1,
        2,
        1,
        4,
        1,
        1,
        1,
        1,
        1,
        2,
        1,
        2,
        1,
        3,
        1,
        3,
        1,
        1,
        2,
        1,
        3,
        4,
        4,
        3,
        1,
        4,
        3,
        1,
        1,
        1,
        1,
        4,
        1,
        1,
        4,
        3,
        4,
        3,
        1,
        4,
        3,
        1,
        53,
        53,
        53,
        53,
        53,
        53,
        53,
        53,
        53,
        53,
        53,
        53,
        53,
        53,
        53,
        2,
        2,
        2,
        1,
        1,
        1,
        1,
        2,
        4,
        1,
        1,
        2,
        1,
        3,
        2,
        1,
        1,
        1,
        1,
        1,
        4,
        1,
        4,
        1,
        2,
        2,
        1,
        2,
        4,
        2,
        1,
        1,
        3,
        1,
        2,
        1,
        1,
        1,
        1,
        3,
        1,
        1,
        1,
        2,
        1,
        1,
        3,
        2,
        1,
        53,
        53,
        53,
        53,
        53,
        53,
        53,
        53,
        53,
        53,
        53,
        53,
        53,
        53,
        53,
        2,
        1,
        1,
        2,
        1,
        1,
        4,
        3,
        1,
        1,
        1,
        1,
        1,
        2,
        1,
        1,
        1,
        2,
        1,
        1,
        1,
        2,
        1,
        1,
        3,
        2,
        2,
        1,
        1,
        1,
        2,
        1,
        1,
        4,
        1,
        2,
        3,
        3,
        3,
        2,
        4,
        1,
        3,
        1,
        4,
        2,
        1,
        4,
        3,
        53,
        53,
        53,
        53,
        53,
        53,
        53,
        53,
        53,
        53,
        53,
        53,
        53,
        53,
        53,
        4,
        1,
        4,
        1,
        1,
        1,
        1,
        2,
        2,
        4,
        3,
        1,
        1,
        1,
        1,
        1,
        1,
        1,
        2,
        1,
        4,
        4,
        1,
        1,
        2,
        1,
        1,
        1,
        1,
        1,
        1,
        3,
        4,
        2,
        1,
        1,
        1,
        2,
        4,
        1,
        3,
        3,
        1,
        1,
        1,
        2,
        2,
        2,
        2,
        1,
        1,
        4,
        1,
        1,
        3,
        7,
        8,
        5,
        1,
        1,
        3,
        1,
        1,
        4,
        4,
        1,
        1,
        2,
        4,
        1,
        1,
        4,
        1,
        2,
        2,
        3,
        4,
        1,
        1,
        2,
        2,
        1,
        1,
        3,
        2,
        3,
        1,
        1
      ]
    },
    {
      "id": 2,
      "name": "Decoration",
      "type": "tilelayer",
      "width": 64,
      "height": 64,
      "opacity": 1,
      "visible": true,
      "x": 0,
      "y": 0,
      "data": [
        0,
        0,
        0,
        0,
        0,
        0,
        0,
        0,
        0,
        0,
        0,
        0,
        0,
        0,
        0,
        0,
        0,
        0,
        0,
        0,
        0,
        0,
        0,
        0,
        0,
        0,
        0,
        0,
        0,
        0,
        0,
        0,
        0,
        0,
        0,
        0,
        0,
        0,
        0,
        0,
        0,
        0,
        0,
        0,
        0,
        0,
        0,
        0,
        0,
        0,
        0,
        0,
        0,
        0,
        0,
        0,
        0,
        0,
        0,
        0,
        0,
        0,
        0,
        0,
        0,
        0,
        0,
        0,
        0,
        0,
        0,
        0,
        0,
        0,
        0,
        0,
        0,
        0,
        0,
        0,
        0,
        0,
        0,
        0,
        0,
        0,
        0,
        0,
        0,
        0,
        0,
        0,
        0,
        0,
        0,
        0,
        0,
        0,
        0,
        0,
        0,
        0,
        0,
        0,
        0,
        0,
        0,
        0,
        0,
        0,
        0,
        0,
        0,
        0,
        0,
        0,
        0,
        0,
        0,
        0,
        0,
        0,
        0,
        0,
        0,
        0,
        0,
        0,
        0,
        0,
        0,
        0,
        0,
        0,
        0,
        0,
        0,
        0,
        0,
        0,
        0,
        0,
        0,
        0,
        0,
        0,
        0,
        0,
        0,
        0,
        0,
        0,
        0,
        0,
        0,
        0,
        0,
        0,
        0,
        0,
        0,
        0,
        0,
        0,
        0,
        0,
        0,
        0,
        0,
        0,
        0,
        0,
        0,
        0,
        0,
        0,
        0,
        0,
        0,
        0,
        0,
        0,
        0,
        0,
        0,
        0,
        0,
        0,
        0,
        0,
        0,
        0,
        0,
        0,
        0,
        0,
        0,
        0,
        0,
        0,
        0,
        0,
        0,
        0,
        0,
        0,
        0,
        0,
        0,
        0,
        0,
        0,
        0,
        0,
        0,
        0,
        0,
        0,
        0,
        0,
        0,
        0,
        0,
        0,
        0,
        0,
        0,
        0,
        0,
        0,
        0,
        0,
        0,
        0,
        0,
        0,
        0,
        0,
        0,
        0,
        0,
        0,
        0,
        0,
        0,
        0,
        0,
        0,
        44,
        0,
        0,
        0,
        0,
        0,
        0,
        0,
        0,
        0,
        0,
        0,
        0,
        0,
        0,
        0,
        0,
        0,
        0,
        0,
        0,
        0,
        0,
        0,
        0,
        0,
        0,
        0,
        0,
        0,
        0,
        0,
        0,
        0,
        0,
        0,
        0,
        0,
        0,
        0,
        65,
        0,
        0,
        0,
        0,
        0,
        0,
        0,
        0,
        0,
        0,
        0,
        0,
        0,
        0,
        0,
        0,
        0,
        0,
        0,
        0,
        0,
        0,
        0,
        0,
        0,
        47,
        0,
        0,
        0,
        0,
        0,
        0,
        0,
        0,
        0,
        0,
        0,
        0,
        0,
        0,
        0,
        0,
        0,
        0,
        0,
        0,
        0,
        0,
        0,
        0,
        0,
        0,
        0,
        0,
        0,
        0,
        0,
        0,
        0,
        0,
        0,
        0,
        0,
        0,
        0,
        0,
        0,
        0,
        0,
        0,
        0,
        0,
        0,
        0,
        0,
        0,
        0,
        0,
        0,
        0,
        0,
        0,
        43,
        0,
        0,
        0,
        0,
        0,
        0,
        0,
        0,
        0,
        0,
        0,
        0,
        0,
        0,
        0,
        0,
        0,
        0,
        0,
        0,
        0,
        0,
        0,
        0,
        0,
        0,
        0,
        0,
        0,
        0,
        0,
        0,
        0,
        0,
        0,
        0,
        0,
        0,
        0,
        0,
        0,
        0,
        0,
        0,
        0,
        0,
        0,
        0,
        0,
        0,
        0,
        0,
        0,
        0,
        0,
        0,
        0,
        0,
        0,
        0,
        0,
        0,
        0,
        0,
        0,
        0,
        0,
        0,
        0,
        0,
        0,
        0,
        0,
        0,
        0,
        0,
        0,
        0,
        0,
        0,
        0,
        0,
        0,
        0,
        0,
        0,
        0,
        0,
        0,
        0,
        0,
        0,
        0,
        0,
        0,
        0,
        0,
        0,
        0,
        0,
        0,
        0,
        0,
        0,
        0,
        0,
        0,
        0,
        0,
        0,
        0,
        0,
        0,
        0,
        0,
        0,
        0,
        0,
        0,
        0,
        0,
        0,
        0,
        0,
        0,
        0,
        0,
        0,
        0,
        0,
        0,
        0,
        0,
        0,
        0,
        0,
        0,
        0,
        0,
        0,
        0,
        0,
        0,
        0,
        0,
        0,
        0,
        0,
        17,
        17,
        17,
        17,
        17,
        17,
        17,
        17,
        22,
        22,
        22,
        22,
        22,
        22,
        22,
        22,
        22,
        0,
        0,
        0,
        0,
        0,
        0,
        0,
        0,
        0,
        0,
        0,
        0,
        0,
        0,
        0,
        0,
        0,
        0,
        0,
        0,
        0,
        0,
        0,
        20,
        20,
        20,
        20,
        20,
        20,
        20,
        20,
        20,
        0,
        0,
        0,
        0,
        0,
        0,
        0,
        0,
        0,
        0,
        0,
        0,
        0,
        0,
        0,
        18,
        18,
        18,
        18,
        18,
        18,
        18,
        18,
        23,
        23,
        23,
        23,
        23,
        23,
        23,
        23,
        23,
        0,
        0,
        0,
        0,
        0,
        0,
        0,
        0,
        0,
        0,
        0,
        0,
        0,
        0,
        0,
        0,
        19,
        19,
        19,
        19,
        19,
        19,
        19,
        21,
        21,
        21,
        21,
        21,
        21,
        21,
        21,
        21,
        0,
        0,
        0,
        0,
        0,
        0,
        0,
        0,
        0,
        0,
        0,
        0,
        0,
        0,
        0,
        9,
        0,
        0,
        0,
        0,
        0,
        0,
        0,
        14,
        0,
        0,
        0,
        0,
        0,
        0,
        0,
        14,
        0,
        0,
        0,
        0,
        0,
        0,
        0,
        0,
        0,
        0,
        0,
        0,
        0,
        0,
        0,
        0,
        20,
        20,
        20,
        20,
        20,
        20,
        20,
        15,
        22,
        22,
        22,
        22,
        22,
        22,
        22,
        15,
        0,
        0,
        0,
        0,
        0,
        0,
        0,
        0,
        0,
        0,
        0,
        0,
        0,
        41,
        0,
        29,
        0,
        0,
        0,
        0,
        0,
        0,
        0,
        14,
        0,
        0,
        0,
        0,
        0,
        0,
        0,
        14,
        0,
        0,
        0,
        0,
        0,
        0,
        0,
        0,
        0,
        0,
        0,
        0,
        0,
        0,
        0,
        0,
        9,
        0,
        0,
        0,
        0,
        0,
        9,
        15,
        10,
        0,
        0,
        0,
        0,
        0,
        10,
        15,
        0,
        0,
        0,
        0,
        0,
        0,
        0,
        0,
        0,
        0,
        0,
        0,
        48,
        0,
        0,
        9,
        0,
        0,
        0,
        0,
        0,
        0,
        0,
        14,
        0,
        0,
        0,
        69,
        0,
        0,
        0,
        14,
        0,
        0,
        0,
        0,
        0,
        0,
        0,
        0,
        0,
        0,
        0,
        0,
        0,
        0,
        0,
        0,
        9,
        0,
        0,
        0,
        0,
        0,
        9,
        15,
        10,
        0,
        0,
        70,
        0,
        0,
        10,
        15,
        0,
        0,
        0,
        0,
        0,
        0,
        0,
        0,
        0,
        0,
        0,
        0,
        0,
        0,
        0,
        9,
        0,
        0,
        0,
        0,
        0,
        0,
        0,
        14,
        0,
        0,
        0,
        0,
        0,
        0,
        0,
        14,
        0,
        0,
        0,
        0,
        0,
        0,
        0,
        0,
        0,
        0,
        0,
        0,
        0,
        0,
        0,
        0,
        9,
        0,
        0,
        0,
        0,
        0,
        9,
        15,
        10,
        0,
        0,
        0,
        0,
        0,
        10,
        15,
        0,
        0,
        0,
        0,
        0,
        0,
        0,
        0,
        0,
        0,
        0,
        0,
        0,
        0,
        0,
        9,
        0,
        0,
        0,
        0,
        0,
        0,
        0,
        14,
        0,
        0,
        0,
        0,
        0,
        0,
        0,
        14,
        0,
        0,
        0,
        0,
        0,
        0,
        0,
        0,
        0,
        0,
        0,
        0,
        0,
        0,
        0,
        0,
        9,
        0,
        0,
        0,
        0,
        0,
        9,
        15,
        10,
        0,
        0,
        0,
        0,
        0,
        10,
        15,
        0,
        0,
        0,
        0,
        0,
        0,
        0,
        0,
        0,
        0,
        0,
        0,
        0,
        0,
        0,
        9,
        0,
        0,
        0,
        0,
        0,
        0,
        0,
        14,
        0,
        0,
        0,
        0,
        0,
        0,
        0,
        14,
        0,
        0,
        0,
        0,
        0,
        0,
        0,
        0,
        0,
        0,
        0,
        0,
        0,
        0,
        0,
        0,
        9,
        9,
        9,
        25,
        9,
        9,
        9,
        15,
        10,
        10,
        10,
        26,
        10,
        10,
        10,
        15,
        0,
        0,
        0,
        47,
        0,
        0,
        0,
        0,
        0,
        0,
        0,
        0,
        0,
        0,
        0,
        9,
        0,
        0,
        0,
        0,
        0,
        0,
        0,
        14,
        14,
        14,
        14,
        14,
        14,
        14,
        14,
        14,
        0,
        0,
        0,
        0,
        0,
        0,
        0,
        0,
        0,
        0,
        0,
        0,
        0,
        0,
        0,
        0,
        0,
        0,
        0,
        0,
        0,
        0,
        0,
        15,
        15,
        15,
        15,
        15,
        15,
        15,
        15,
        15,
        0,
        0,
        0,
        0,
        0,
        42,
        0,
        0,
        0,
        43,
        0,
        0,
        0,
        0,
        0,
        9,
        0,
        0,
        0,
        0,
        0,
        0,
        0,
        0,
        0,
        0,
        0,
        0,
        0,
        0,
        0,
        9,
        0,
        0,
        0,
        0,
        0,
        0,
        0,
        0,
        0,
        0,
        0,
        0,
        0,
        0,
        0,
        0,
        23,
        23,
        23,
        23,
        23,
        23,
        23,
        0,
        17,
        17,
        17,
        17,
        17,
        17,
        17,
        0,
        0,
        0,
        0,
        0,
        0,
        0,
        0,
        0,
        0,
        0,
        0,
        0,
        0,
        0,
        0,
        9,
        0,
        0,
        0,
        0,
        0,
        0,
        0,
        0,
        0,
        0,
        0,
        0,
        0,
        0,
        0,
        9,
        0,
        0,
        0,
        0,
        0,
        0,
        0,
        0,
        0,
        0,
        0,
        0,
        0,
        0,
        0,
        0,
        24,
        24,
        24,
        24,
        24,
        24,
        24,
        0,
        18,
        18,
        18,
        18,
        18,
        18,
        18,
        0,
        0,
        0,
        0,
        0,
        0,
        0,
        0,
        0,
        0,
        0,
        0,
        0,
        0,
        0,
        0,
        9,
        0,
        0,
        0,
        0,
        0,
        0,
        0,
        0,
        0,
        0,
        0,
        0,
        0,
        0,
        0,
        9,
        0,
        0,
        0,
        0,
        0,
        0,
        0,
        0,
        0,
        0,
        0,
        0,
        0,
        0,
        0,
        0,
        11,
        0,
        0,
        0,
        0,
        0,
        11,
        0,
        12,
        0,
        0,
        0,
        0,
        0,
        12,
        0,
        0,
        0,
        0,
        0,
        0,
        0,
        0,
        0,
        0,
        0,
        0,
        0,
        0,
        0,
        0,
        9,
        0,
        0,
        0,
        0,
        0,
        0,
        0,
        0,
        0,
        0,
        0,
        0,
        0,
        0,
        0,
        9,
        0,
        0,
        0,
        0,
        0,
        0,
        0,
        0,
        0,
        0,
        0,
        0,
        0,
        0,
        0,
        0,
        11,
        0,
        0,
        0,
        0,
        0,
        11,
        0,
        12,
        0,
        0,
        0,
        0,
        0,
        12,
        0,
        0,
        0,
        0,
        0,
        0,
        0,
        0,
        0,
        0,
        0,
        0,
        0,
        0,
        0,
        0,
        9,
        0,
        0,
        0,
        0,
        0,
        0,
        0,
        0,
        0,
        0,
        0,
        0,
        0,
        0,
        0,
        9,
        0,
        0,
        0,
        0,
        0,
        0,
        0,
        0,
        0,
        0,
        0,
        0,
        0,
        0,
        0,
        0,
        11,
        0,
        0,
        0,
        0,
        0,
        11,
        0,
        12,
        0,
        0,
        0,
        0,
        0,
        12,
        0,
        0,
        0,
        0,
        41,
        0,
        0,
        0,
        0,
        0,
        0,
        0,
        0,
        0,
        0,
        0,
        9,
        0,
        0,
        0,
        0,
        0,
        0,
        0,
        0,
        0,
        0,
        0,
        0,
        0,
        0,
        0,
        9,
        0,
        0,
        0,
        0,
        0,
        0,
        0,
        0,
        0,
        0,
        0,
        0,
        0,
        0,
        0,
        0,
        11,
        0,
        0,
        0,
        0,
        0,
        11,
        0,
        12,
        0,
        0,
        0,
        0,
        0,
        12,
        0,
        0,
        0,
        0,
        0,
        0,
        0,
        0,
        0,
        0,
        0,
        0,
        0,
        0,
        0,
        0,
        9,
        0,
        0,
        0,
        0,
        0,
        0,
        0,
        0,
        0,
        0,
        0,
        0,
        0,
        0,
        0,
        9,
        0,
        0,
        0,
        0,
        0,
        0,
        0,
        0,
        0,
        0,
        0,
        0,
        0,
        0,
        0,
        0,
        11,
        11,
        11,
        25,
        11,
        11,
        11,
        0,
        12,
        12,
        12,
        26,
        12,
        12,
        12,
        0,
        0,
        0,
        0,
        0,
        0,
        0,
        0,
        0,
        0,
        0,
        0,
        0,
        0,
        0,
        0,
        9,
        9,
        9,
        9,
        9,
        9,
        9,
        9,
        25,
        9,
        9,
        9,
        9,
        9,
        9,
        9,
        9,
        0,
        0,
        0,
        0,
        0,
        0,
        0,
        0,
        0,
        0,
        0,
        0,
        0,
        0,
        0,
        19,
        19,
        19,
        19,
        19,
        19,
        19,
        19,
        19,
        19,
        19,
        19,
        19,
        19,
        19,
        19,
        19,
        0,
        0,
        0,
        0,
        0,
        0,
        0,
        0,
        0,
        0,
        0,
        0,
        0,
        0,
        0,
        0,
        0,
        0,
        0,
        0,
        0,
        0,
        0,
        0,
        0,
        0,
        0,
        0,
        0,
        0,
        0,
        0,
        0,
        0,
        0,
        0,
        0,
        0,
        0,
        0,
        0,
        0,
        0,
        0,
        0,
        0,
        0,
        20,
        20,
        20,
        20,
        20,
        20,
        20,
        20,
        20,
        20,
        20,
        20,
        20,
        20,
        20,
        20,
        20,
        0,
        0,
        0,
        0,
        0,
        0,
        0,
        0,
        0,
        0,
        0,
        0,
        0,
        0,
        0,
        0,
        0,
        0,
        0,
        0,
        0,
        0,
        0,
        0,
        0,
        0,
        0,
        0,
        0,
        0,
        0,
        0,
        0,
        33,
        0,
        0,
        0,
        0,
        0,
        0,
        0,
        0,
        0,
        0,
        0,
        33,
        0,
        13,
        0,
        0,
        0,
        0,
        0,
        0,
        0,
        0,
        0,
        0,
        0,
        0,
        0,
        0,
        0,
        13,
        0,
        0,
        0,
        0,
        0,
        0,
        0,
        0,
        0,
        0,
        42,
        0,
        0,
        0,
        0,
        0,
        0,
        0,
        0,
        0,
        0,
        0,
        0,
        0,
        0,
        0,
        0,
        0,
        0,
        0,
        0,
        0,
        0,
        0,
        0,
        0,
        0,
        0,
        0,
        0,
        0,
        0,
        0,
        0,
        0,
        0,
        0,
        13,
        0,
        0,
        0,
        0,
        0,
        0,
        0,
        0,
        0,
        0,
        0,
        0,
        0,
        0,
        0,
        13,
        0,
        0,
        0,
        0,
        0,
        0,
        0,
        0,
        0,
        0,
        0,
        0,
        0,
        0,
        0,
        0,
        0,
        0,
        0,
        0,
        0,
        0,
        0,
        0,
        0,
        0,
        0,
        0,
        0,
        0,
        0,
        0,
        0,
        0,
        0,
        0,
        0,
        0,
        0,
        0,
        0,
        0,
        0,
        0,
        0,
        0,
        0,
        13,
        0,
        0,
        0,
        0,
        0,
        0,
        0,
        66,
        0,
        0,
        0,
        0,
        0,
        0,
        0,
        13,
        0,
        0,
        0,
        0,
        0,
        0,
        0,
        0,
        0,
        0,
        0,
        0,
        0,
        0,
        0,
        0,
        0,
        0,
        0,
        0,
        0,
        0,
        0,
        0,
        0,
        0,
        0,
        0,
        0,
        0,
        0,
        0,
        0,
        0,
        0,
        0,
        0,
        0,
        0,
        0,
        0,
        0,
        0,
        0,
        0,
        0,
        0,
        13,
        0,
        0,
        0,
        0,
        0,
        0,
        0,
        0,
        0,
        0,
        0,
        0,
        0,
        0,
        0,
        13,
        0,
        0,
        0,
        0,
        0,
        0,
        0,
        0,
        0,
        0,
        0,
        0,
        0,
        0,
        0,
        0,
        0,
        0,
        0,
        0,
        0,
        0,
        0,
        0,
        0,
        0,
        0,
        0,
        0,
        0,
        0,
        0,
        0,
        0,
        0,
        0,
        0,
        13,
        13,
        13,
        13,
        13,
        0,
        0,
        0,
        0,
        0,
        13,
        0,
        0,
        0,
        0,
        0,
        0,
        0,
        0,
        0,
        0,
        0,
        0,
        0,
        0,
        0,
        13,
        0,
        0,
        0,
        0,
        0,
        0,
        0,
        0,
        0,
        0,
        0,
        0,
        0,
        0,
        0,
        0,
        0,
        0,
        0,
        0,
        0,
        0,
        0,
        0,
        0,
        0,
        0,
        0,
        0,
        0,
        0,
        0,
        0,
        0,
        0,
        0,
        0,
        13,
        13,
        50,
        13,
        13,
        0,
        0,
        0,
        0,
        0,
        13,
        0,
        0,
        0,
        0,
        0,
        0,
        0,
        0,
        0,
        0,
        0,
        0,
        0,
        0,
        0,
        13,
        0,
        0,
        0,
        0,
        0,
        0,
        0,
        0,
        0,
        0,
        0,
        0,
        0,
        0,
        0,
        0,
        0,
        0,
        0,
        0,
        0,
        0,
        0,
        0,
        0,
        0,
        0,
        0,
        0,
        0,
        0,
        0,
        0,
        0,
        0,
        0,
        0,
        13,
        13,
        49,
        51,
        13,
        0,
        0,
        0,
        0,
        0,
        13,
        13,
        13,
        13,
        13,
        13,
        13,
        13,
        13,
        13,
        13,
        13,
        13,
        13,
        13,
        13,
        13,
        0,
        0,
        0,
        0,
        0,
        0,
        0,
        0,
        0,
        0,
        0,
        0,
        0,
        0,
        0,
        0,
        0,
        0,
        0,
        0,
        0,
        0,
        0,
        0,
        0,
        0,
        0,
        0,
        0,
        0,
        0,
        0,
        0,
        0,
        0,
        0,
        0,
        13,
        13,
        13,
        13,
        13,
        0,
        0,
        0,
        0,
        0,
        0,
        0,
        0,
        0,
        0,
        0,
        0,
        0,
        0,
        0,
        0,
        0,
        0,
        0,
        0,
        0,
        0,
        0,
        0,
        0,
        0,
        0,
        0,
        0,
        0,
        0,
        0,
        0,
        0,
        0,
        0,
        0,
        0,
        0,
        0,
        0,
        0,
        0,
        0,
        0,
        0,
        0,
        0,
        0,
        0,
        0,
        0,
        0,
        0,
        0,
        0,
        0,
        0,
        0,
        13,
        13,
        13,
        13,
        13,
        0,
        0,
        0,
        0,
        0,
        0,
        0,
        0,
        0,
        0,
        0,
        0,
        0,
        0,
        0,
        0,
        0,
        0,
        0,
        0,
        0,
        0,
        0,
        0,
        0,
        0,
        0,
        0,
        0,
        0,
        0,
        0,
        0,
        0,
        0,
        0,
        0,
        0,
        0,
        0,
        0,
        0,
        0,
        0,
        0,
        0,
        0,
        0,
        0,
        0,
        0,
        0,
        0,
        0,
        0,
        0,
        0,
        0,
        0,
        0,
        0,
        0,
        0,
        0,
        0,
        0,
        0,
        0,
        0,
        0,
        0,
        0,
        0,
        0,
        0,
        0,
        0,
        0,
        0,
        0,
        0,
        0,
        0,
        0,
        0,
        0,
        0,
        0,
        0,
        0,
        0,
        0,
        0,
        0,
        0,
        0,
        0,
        0,
        0,
        0,
        0,
        0,
        0,
        0,
        0,
        0,
        0,
        0,
        0,
        0,
        0,
        0,
        0,
        0,
        0,
        0,
        0,
        0,
        0,
        0,
        0,
        0,
        0,
        0,
        0,
        0,
        0,
        0,
        0,
        0,
        0,
        0,
        0,
        0,
        0,
        0,
        0,
        0,
        0,
        0,
        0,
        0,
        0,
        0,
        0,
        0,
        0,
        0,
        0,
        0,
        0,
        0,
        0,
        0,
        0,
        0,
        0,
        0,
        0,
        0,
        0,
        0,
        0,
        0,
        0,
        0,
        0,
        0,
        0,
        0,
        0,
        0,
        0,
        0,
        0,
        0,
        0,
        0,
        0,
        0,
        0,
        0,
        0,
        0,
        0,
        0,
        0,
        0,
        0,
        0,
        0,
        0,
        0,
        0,
        0,
        0,
        0,
        0,
        0,
        0,
        0,
        0,
        0,
        0,
        0,
        0,
        0,
        0,
        0,
        0,
        0,
        0,
        0,
        0,
        0,
        0,
        0,
        0,
        0,
        0,
        0,
        0,
        0,
        0,
        0,
        0,
        0,
        0,
        0,
        0,
        0,
        0,
        0,
        0,
        0,
        0,
        0,
        0,
        0,
        0,
        0,
        0,
        0,
        0,
        0,
        0,
        0,
        33,
        0,
        0,
        0,
        0,
        0,
        0,
        0,
        0,
        0,
        0,
        0,
        33,
        0,
        0,
        0,
        0,
        0,
        0,
        0,
        0,
        0,
        0,
        0,
        0,
        0,
        0,
        0,
        0,
        0,
        0,
        0,
        0,
        0,
        0,
        0,
        0,
        46,
        0,
        0,
        0,
        0,
        0,
        0,
        0,
        0,
        0,
        0,
        0,
        0,
        0,
        0,
        0,
        0,
        0,
        0,
        0,
        0,
        0,
        0,
        0,
        0,
        0,
        0,
        0,
        0,
        0,
        0,
        0,
        0,
        0,
        0,
        0,
        0,
        0,
        0,
        0,
        0,
        0,
        0,
        0,
        0,
        0,
        0,
        0,
        0,
        0,
        0,
        0,
        0,
        0,
        0,
        0,
        0,
        0,
        0,
        0,
        0,
        0,
        0,
        0,
        0,
        0,
        0,
        0,
        0,
        0,
        0,
        0,
        0,
        23,
        23,
        23,
        23,
        23,
        23,
        23,
        23,
        23,
        23,
        23,
        23,
        23,
        23,
        23,
        23,
        23,
        0,
        0,
        0,
        0,
        0,
        0,
        0,
        0,
        0,
        0,
        0,
        0,
        0,
        0,
        0,
        18,
        18,
        18,
        18,
        18,
        18,
        18,
        18,
        18,
        18,
        18,
        18,
        18,
        18,
        18,
        18,
        18,
        0,
        0,
        0,
        0,
        0,
        0,
        0,
        0,
        0,
        0,
        0,
        0,
        0,
        0,
        0,
        24,
        24,
        24,
        24,
        24,
        24,
        24,
        24,
        24,
        24,
        24,
        24,
        24,
        24,
        24,
        24,
        24,
        0,
        0,
        0,
        0,
        0,
        0,
        0,
        0,
        0,
        0,
        0,
        0,
        0,
        0,
        0,
        19,
        19,
        19,
        19,
        19,
        19,
        19,
        19,
        19,
        19,
        19,
        19,
        19,
        19,
        19,
        19,
        19,
        0,
        0,
        0,
        0,
        0,
        0,
        0,
        0,
        0,
        0,
        0,
        0,
        0,
        0,
        0,
        11,
        0,
        0,
        0,
        0,
        0,
        0,
        0,
        0,
        0,
        0,
        0,
        0,
        0,
        0,
        0,
        11,
        0,
        0,
        0,
        21,
        21,
        21,
        21,
        21,
        21,
        21,
        21,
        21,
        0,
        0,
        0,
        16,
        0,
        0,
        0,
        0,
        0,
        0,
        0,
        0,
        0,
        0,
        0,
        0,
        0,
        0,
        0,
        16,
        0,
        0,
        0,
        0,
        0,
        0,
        0,
        0,
        0,
        0,
        0,
        0,
        0,
        0,
        0,
        11,
        0,
        0,
        0,
        0,
        0,
        0,
        0,
        0,
        0,
        0,
        0,
        0,
        0,
        0,
        0,
        11,
        0,
        0,
        0,
        22,
        22,
        22,
        22,
        22,
        22,
        22,
        22,
        22,
        0,
        0,
        0,
        16,
        0,
        0,
        0,
        0,
        0,
        0,
        0,
        0,
        0,
        0,
        0,
        0,
        0,
        0,
        0,
        16,
        0,
        0,
        0,
        0,
        0,
        0,
        0,
        0,
        0,
        0,
        0,
        0,
        0,
        0,
        0,
        11,
        0,
        0,
        0,
        0,
        0,
        0,
        0,
        0,
        0,
        0,
        0,
        0,
        0,
        0,
        0,
        11,
        0,
        0,
        0,
        13,
        0,
        0,
        0,
        0,
        0,
        0,
        0,
        13,
        0,
        0,
        0,
        16,
        0,
        0,
        0,
        0,
        0,
        0,
        0,
        0,
        0,
        0,
        0,
        0,
        0,
        0,
        0,
        16,
        0,
        0,
        0,
        0,
        0,
        0,
        0,
        0,
        0,
        0,
        0,
        0,
        0,
        0,
        0,
        11,
        0,
        0,
        0,
        0,
        0,
        0,
        0,
        0,
        0,
        0,
        0,
        0,
        0,
        0,
        0,
        11,
        0,
        0,
        0,
        13,
        0,
        0,
        0,
        0,
        0,
        0,
        0,
        13,
        0,
        0,
        0,
        16,
        0,
        0,
        0,
        0,
        0,
        0,
        0,
        0,
        0,
        0,
        0,
        0,
        0,
        0,
        0,
        16,
        0,
        0,
        0,
        0,
        0,
        0,
        0,
        42,
        0,
        0,
        0,
        0,
        0,
        0,
        0,
        11,
        0,
        0,
        0,
        0,
        0,
        0,
        0,
        0,
        0,
        0,
        0,
        0,
        0,
        0,
        0,
        11,
        0,
        0,
        0,
        13,
        13,
        13,
        13,
        35,
        13,
        13,
        13,
        13,
        0,
        0,
        0,
        16,
        0,
        0,
        0,
        0,
        0,
        0,
        0,
        0,
        0,
        0,
        0,
        0,
        0,
        0,
        0,
        16,
        0,
        0,
        0,
        0,
        0,
        0,
        0,
        0,
        0,
        0,
        0,
        0,
        44,
        0,
        0,
        11,
        0,
        0,
        0,
        0,
        0,
        0,
        0,
        0,
        0,
        0,
        0,
        0,
        0,
        0,
        0,
        11,
        0,
        0,
        0,
        0,
        0,
        0,
        0,
        0,
        0,
        0,
        0,
        0,
        0,
        0,
        0,
        16,
        0,
        0,
        0,
        0,
        0,
        0,
        0,
        0,
        0,
        0,
        0,
        0,
        0,
        0,
        0,
        16,
        0,
        0,
        0,
        0,
        0,
        0,
        0,
        0,
        0,
        0,
        0,
        0,
        0,
        0,
        0,
        11,
        0,
        0,
        0,
        0,
        0,
        0,
        0,
        67,
        0,
        0,
        0,
        0,
        0,
        0,
        0,
        11,
        0,
        0,
        42,
        0,
        0,
        0,
        0,
        0,
        0,
        0,
        0,
        0,
        0,
        47,
        0,
        16,
        0,
        0,
        0,
        0,
        0,
        0,
        0,
        68,
        0,
        0,
        0,
        0,
        0,
        0,
        0,
        16,
        0,
        0,
        0,
        0,
        0,
        0,
        0,
        0,
        0,
        0,
        0,
        0,
        0,
        0,
        0,
        11,
        0,
        0,
        0,
        0,
        0,
        0,
        0,
        0,
        0,
        0,
        0,
        0,
        0,
        0,
        0,
        11,
        0,
        0,
        0,
        0,
        0,
        0,
        0,
        0,
        0,
        0,
        0,
        0,
        0,
        0,
        0,
        16,
        0,
        0,
        0,
        0,
        0,
        0,
        0,
        0,
        0,
        0,
        0,
        0,
        0,
        0,
        0,
        16,
        0,
        0,
        0,
        0,
        0,
        0,
        0,
        0,
        0,
        0,
        0,
        0,
        0,
        0,
        0,
        11,
        0,
        0,
        0,
        0,
        0,
        0,
        0,
        0,
        0,
        0,
        0,
        0,
        0,
        0,
        0,
        11,
        0,
        0,
        0,
        0,
        0,
        0,
        0,
        0,
        0,
        0,
        0,
        0,
        0,
        0,
        0,
        16,
        0,
        0,
        0,
        0,
        0,
        0,
        0,
        0,
        0,
        0,
        0,
        0,
        0,
        0,
        0,
        16,
        0,
        0,
        0,
        0,
        0,
        0,
        44,
        0,
        0,
        0,
        47,
        0,
        0,
        0,
        0,
        11,
        0,
        0,
        0,
        0,
        0,
        0,
        0,
        0,
        0,
        0,
        0,
        0,
        0,
        0,
        0,
        11,
        0,
        0,
        0,
        0,
        0,
        0,
        0,
        0,
        0,
        0,
        0,
        0,
        0,
        0,
        0,
        16,
        0,
        0,
        0,
        0,
        0,
        0,
        0,
        0,
        0,
        0,
        0,
        0,
        0,
        0,
        0,
        16,
        0,
        0,
        0,
        0,
        0,
        0,
        0,
        0,
        0,
        0,
        0,
        0,
        0,
        0,
        0,
        11,
        0,
        0,
        0,
        0,
        0,
        0,
        0,
        0,
        0,
        0,
        0,
        0,
        0,
        0,
        0,
        11,
        0,
        0,
        0,
        0,
        0,
        0,
        0,
        0,
        0,
        0,
        0,
        0,
        0,
        0,
        0,
        16,
        0,
        0,
        0,
        0,
        0,
        0,
        0,
        0,
        0,
        0,
        0,
        0,
        0,
        0,
        0,
        16,
        0,
        0,
        0,
        0,
        0,
        0,
        0,
        0,
        0,
        0,
        0,
        0,
        0,
        0,
        0,
        11,
        0,
        0,
        0,
        0,
        0,
        0,
        0,
        0,
        0,
        0,
        0,
        0,
        0,
        0,
        0,
        11,
        0,
        0,
        0,
        0,
        0,
        0,
        0,
        0,
        0,
        0,
        0,
        0,
        0,
        0,
        0,
        16,
        0,
        0,
        0,
        0,
        0,
        0,
        0,
        0,
        0,
        0,
        0,
        0,
        0,
        0,
        0,
        16,
        0,
        0,
        0,
        0,
        0,
        0,
        0,
        0,
        0,
        0,
        0,
        0,
        0,
        0,
        0,
        11,
        0,
        0,
        0,
        0,
        0,
        0,
        0,
        0,
        0,
        0,
        0,
        0,
        0,
        0,
        0,
        11,
        0,
        0,
        0,
        0,
        0,
        0,
        0,
        0,
        0,
        0,
        0,
        0,
        0,
        0,
        0,
        16,
        0,
        0,
        0,
        0,
        0,
        0,
        0,
        0,
        0,
        0,
        0,
        0,
        0,
        0,
        0,
        16,
        0,
        0,
        0,
        0,
        0,
        0,
        0,
        0,
        0,
        0,
        0,
        0,
        0,
        0,
        0,
        11,
        0,
        0,
        0,
        0,
        0,
        0,
        0,
        0,
        0,
        0,
        0,
        0,
        0,
        0,
        0,
        11,
        0,
        0,
        0,
        0,
        0,
        0,
        0,
        0,
        0,
        0,
        0,
        0,
        0,
        0,
        0,
        16,
        0,
        0,
        0,
        0,
        0,
        0,
        0,
        0,
        0,
        0,
        0,
        0,
        0,
        0,
        0,
        16,
        0,
        0,
        0,
        0,
        0,
        0,
        0,
        0,
        0,
        0,
        0,
        0,
        0,
        0,
        0,
        11,
        11,
        11,
        11,
        11,
        11,
        11,
        11,
        11,
        11,
        11,
        11,
        11,
        11,
        11,
        11,
        11,
        0,
        0,
        0,
        0,
        0,
        0,
        0,
        0,
        0,
        0,
        0,
        0,
        0,
        0,
        0,
        16,
        16,
        16,
        16,
        16,
        16,
        16,
        16,
        16,
        16,
        16,
        16,
        16,
        16,
        16,
        16,
        16,
        0,
        0,
        0,
        0,
        0,
        0,
        0,
        0,
        0,
        0,
        0,
        0,
        0,
        0,
        0,
        0,
        0,
        0,
        0,
        0,
        0,
        0,
        0,
        0,
        0,
        0,
        0,
        0,
        0,
        0,
        0,
        0,
        0,
        0,
        0,
        0,
        0,
        0,
        0,
        0,
        0,
        0,
        0,
        0,
        0,
        0,
        0,
        0,
        0,
        0,
        0,
        0,
        0,
        0,
        0,
        0,
        0,
        0,
        0,
        0,
        0,
        0,
        0,
        0,
        0,
        0,
        0,
        0,
        0,
        0,
        0,
        0,
        0,
        0,
        0,
        0,
        0,
        0,
        0,
        0,
        0,
        0,
        0,
        0,
        0,
        0,
        0,
        0,
        0,
        0,
        0,
        0,
        0,
        0,
        0,
        0,
        0,
        0,
        0,
        0,
        0,
        0,
        0,
        0,
        0,
        0,
        0,
        0,
        0,
        0,
        0,
        0,
        0,
        0,
        0,
        0,
        0,
        0,
        0,
        0,
        0,
        0,
        0,
        0,
        0,
        0,
        0,
        0,
        0,
        0,
        0,
        0,
        0,
        0,
        0,
        0,
        0,
        0,
        0,
        0,
        0,
        0,
        0,
        0,
        0,
        0,
        0,
        0,
        0,
        0,
        0,
        0,
        0,
        0,
        0,
        0,
        0,
        0,
        0,
        0,
        0,
        0,
        0,
        0,
        0,
        0,
        0,
        71,
        0,
        0,
        0,
        0,
        0,
        0,
        0,
        0,
        0,
        0,
        0,
        0,
        0,
        0,
        0,
        0,
        0,
        0,
        0,
        0,
        0,
        0,
        0,
        0,
        0,
        0,
        0,
        0,
        0,
        0,
        0,
        0,
        0,
        0,
        0,
        0,
        0,
        0,
        0,
        0,
        0,
        0,
        0,
        0,
        0,
        0,
        0,
        0,
        0,
        0,
        0,
        0,
        0,
        0,
        0,
        0,
        0,
        0,
        0,
        0,
        0,
        0,
        0,
        0,
        0,
        0,
        0,
        0,
        0,
        0,
        0,
        0,
        0,
        0,
        0,
        0,
        0,
        0,
        0,
        0,
        0,
        0,
        0,
        0,
        0,
        0,
        0,
        0,
        0,
        0,
        0,
        0,
        0,
        0,
        0,
        0,
        0,
        0,
        0,
        0,
        0,
        0,
        0,
        0,
        0,
        0,
        0,
        42,
        0,
        0,
        0,
        0,
        0,
        0,
        0,
        0,
        0,
        0,
        0,
        0,
        0,
        0,
        0,
        0,
        0,
        0,
        0,
        0,
        0,
        0,
        0,
        0,
        0,
        0,
        0,
        0,
        0,
        0,
        0,
        0,
        0,
        0,
        0,
        0,
        0,
        0,
        0,
        0,
        0,
        0,
        0,
        0,
        0,
        0,
        0,
        0,
        0,
        0,
        0,
        0,
        0,
        0,
        0,
        0,
        0,
        0,
        0,
        0,
        0,
        0,
        0,
        0,
        0,
        0,
        0,
        0,
        0,
        0,
        0,
        0,
        0,
        0,
        0,
        0,
        0,
        0,
        0,
        0,
        0,
        0,
        0,
        0,
        0,
        0,
        0,
        0,
        0,
        0,
        0,
        0,
        0,
        0,
        0,
        0,
        0,
        0,
        0,
        0,
        0,
        0,
        0,
        0,
        0,
        0,
        0,
        0,
        0,
        0,
        0,
        0,
        0,
        0,
        0,
        0,
        0,
        0,
        0,
        0,
        0,
        0,
        0,
        0,
        0,
        0,
        0,
        0,
        0,
        0,
        0,
        0,
        0,
        0,
        0,
        0,
        0,
        0,
        0,
        0,
        0,
        0,
        0,
        0,
        0,
        0,
        0,
        0,
        0,
        0,
        0,
        0,
        0,
        0,
        0,
        0,
        0,
        0,
        0,
        0,
        0,
        0,
        0,
        0,
        0,
        0,
        0,
        0,
        0,
        0,
        0,
        0,
        0,
        0,
        0,
        0,
        0,
        0,
        0
      ]
    },
    {
      "id": 3,
      "name": "Collision",
      "type": "tilelayer",
      "width": 64,
      "height": 64,
      "opacity": 0.5,
      "visible": false,
      "x": 0,
      "y": 0,
      "data": [
        0,
        0,
        0,
        0,
        0,
        0,
        0,
        0,
        0,
        0,
        0,
        0,
        0,
        0,
        0,
        0,
        0,
        0,
        0,
        0,
        0,
        0,
        0,
        0,
        0,
        0,
        0,
        0,
        0,
        0,
        0,
        0,
        0,
        0,
        0,
        0,
        0,
        0,
        0,
        0,
        0,
        0,
        0,
        0,
        0,
        0,
        0,
        0,
        0,
        0,
        0,
        0,
        0,
        0,
        0,
        0,
        0,
        0,
        0,
        0,
        0,
        0,
        0,
        0,
        0,
        0,
        0,
        0,
        0,
        0,
        0,
        0,
        0,
        0,
        0,
        0,
        0,
        0,
        0,
        0,
        0,
        0,
        0,
        0,
        0,
        0,
        0,
        0,
        0,
        0,
        0,
        0,
        0,
        0,
        0,
        0,
        0,
        0,
        0,
        0,
        0,
        0,
        0,
        0,
        0,
        0,
        0,
        0,
        0,
        0,
        0,
        0,
        0,
        0,
        0,
        0,
        0,
        0,
        0,
        0,
        0,
        0,
        0,
        0,
        0,
        0,
        0,
        0,
        0,
        0,
        0,
        0,
        0,
        0,
        0,
        0,
        0,
        0,
        0,
        0,
        0,
        0,
        0,
        0,
        0,
        0,
        0,
        0,
        0,
        0,
        0,
        0,
        0,
        0,
        0,
        0,
        0,
        0,
        0,
        0,
        0,
        0,
        0,
        0,
        0,
        0,
        0,
        0,
        0,
        0,
        0,
        0,
        0,
        0,
        0,
        0,
        0,
        0,
        0,
        0,
        0,
        0,
        0,
        0,
        0,
        0,
        0,
        0,
        0,
        0,
        0,
        0,
        0,
        0,
        0,
        0,
        0,
        0,
        0,
        0,
        0,
        0,
        0,
        0,
        0,
        0,
        0,
        0,
        0,
        0,
        0,
        0,
        0,
        0,
        0,
        0,
        0,
        0,
        0,
        0,
        0,
        0,
        0,
        0,
        0,
        0,
        0,
        0,
        0,
        0,
        0,
        0,
        0,
        0,
        0,
        0,
        0,
        0,
        0,
        0,
        0,
        0,
        0,
        0,
        0,
        0,
        0,
        0,
        44,
        0,
        0,
        0,
        0,
        0,
        0,
        0,
        0,
        0,
        0,
        0,
        0,
        0,
        0,
        0,
        0,
        0,
        0,
        0,
        0,
        0,
        0,
        0,
        0,
        0,
        0,
        0,
        0,
        0,
        0,
        0,
        0,
        0,
        0,
        0,
        0,
        0,
        0,
        0,
        65,
        0,
        0,
        0,
        0,
        0,
        0,
        0,
        0,
        0,
        0,
        0,
        0,
        0,
        0,
        0,
        0,
        0,
        0,
        0,
        0,
        0,
        0,
        0,
        0,
        0,
        47,
        0,
        0,
        0,
        0,
        0,
        0,
        0,
        0,
        0,
        0,
        0,
        0,
        0,
        0,
        0,
        0,
        0,
        0,
        0,
        0,
        0,
        0,
        0,
        0,
        0,
        0,
        0,
        0,
        0,
        0,
        0,
        0,
        0,
        0,
        0,
        0,
        0,
        0,
        0,
        0,
        0,
        0,
        0,
        0,
        0,
        0,
        0,
        0,
        0,
        0,
        0,
        0,
        0,
        0,
        0,
        0,
        43,
        0,
        0,
        0,
        0,
        0,
        0,
        0,
        0,
        0,
        0,
        0,
        0,
        0,
        0,
        0,
        0,
        0,
        0,
        0,
        0,
        0,
        0,
        0,
        0,
        0,
        0,
        0,
        0,
        0,
        0,
        0,
        0,
        0,
        0,
        0,
        0,
        0,
        0,
        0,
        0,
        0,
        0,
        0,
        0,
        0,
        0,
        0,
        0,
        0,
        0,
        0,
        0,
        0,
        0,
        0,
        0,
        0,
        0,
        0,
        0,
        0,
        0,
        0,
        0,
        0,
        0,
        0,
        0,
        0,
        0,
        0,
        0,
        0,
        0,
        0,
        0,
        0,
        0,
        0,
        0,
        0,
        0,
        0,
        0,
        0,
        0,
        0,
        0,
        0,
        0,
        0,
        0,
        0,
        0,
        0,
        0,
        0,
        0,
        0,
        0,
        0,
        0,
        0,
        0,
        0,
        0,
        0,
        0,
        0,
        0,
        0,
        0,
        0,
        0,
        0,
        0,
        0,
        0,
        0,
        0,
        0,
        0,
        0,
        0,
        0,
        0,
        0,
        0,
        0,
        0,
        0,
        0,
        0,
        0,
        0,
        0,
        0,
        0,
        0,
        0,
        0,
        0,
        0,
        0,
        0,
        0,
        0,
        0,
        17,
        17,
        17,
        17,
        17,
        17,
        17,
        17,
        22,
        22,
        22,
        22,
        22,
        22,
        22,
        22,
        22,
        0,
        0,
        0,
        0,
        0,
        0,
        0,
        0,
        0,
        0,
        0,
        0,
        0,
        0,
        0,
        0,
        0,
        0,
        0,
        0,
        0,
        0,
        0,
        20,
        20,
        20,
        20,
        20,
        20,
        20,
        20,
        20,
        0,
        0,
        0,
        0,
        0,
        0,
        0,
        0,
        0,
        0,
        0,
        0,
        0,
        0,
        0,
        18,
        18,
        18,
        18,
        18,
        18,
        18,
        18,
        23,
        23,
        23,
        23,
        23,
        23,
        23,
        23,
        23,
        0,
        0,
        0,
        0,
        0,
        0,
        0,
        0,
        0,
        0,
        0,
        0,
        0,
        0,
        0,
        0,
        19,
        19,
        19,
        19,
        19,
        19,
        19,
        21,
        21,
        21,
        21,
        21,
        21,
        21,
        21,
        21,
        0,
        0,
        0,
        0,
        0,
        0,
        0,
        0,
        0,
        0,
        0,
        0,
        0,
        0,
        0,
        9,
        0,
        0,
        0,
        0,
        0,
        0,
        0,
        14,
        0,
        0,
        0,
        0,
        0,
        0,
        0,
        14,
        0,
        0,
        0,
        0,
        0,
        0,
        0,
        0,
        0,
        0,
        0,
        0,
        0,
        0,
        0,
        0,
        20,
        20,
        20,
        20,
        20,
        20,
        20,
        15,
        22,
        22,
        22,
        22,
        22,
        22,
        22,
        15,
        0,
        0,
        0,
        0,
        0,
        0,
        0,
        0,
        0,
        0,
        0,
        0,
        0,
        41,
        0,
        29,
        0,
        0,
        0,
        0,
        0,
        0,
        0,
        14,
        0,
        0,
        0,
        0,
        0,
        0,
        0,
        14,
        0,
        0,
        0,
        0,
        0,
        0,
        0,
        0,
        0,
        0,
        0,
        0,
        0,
        0,
        0,
        0,
        9,
        0,
        0,
        0,
        0,
        0,
        9,
        15,
        10,
        0,
        0,
        0,
        0,
        0,
        10,
        15,
        0,
        0,
        0,
        0,
        0,
        0,
        0,
        0,
        0,
        0,
        0,
        0,
        48,
        0,
        0,
        9,
        0,
        0,
        0,
        0,
        0,
        0,
        0,
        14,
        0,
        0,
        0,
        69,
        0,
        0,
        0,
        14,
        0,
        0,
        0,
        0,
        0,
        0,
        0,
        0,
        0,
        0,
        0,
        0,
        0,
        0,
        0,
        0,
        9,
        0,
        0,
        0,
        0,
        0,
        9,
        15,
        10,
        0,
        0,
        70,
        0,
        0,
        10,
        15,
        0,
        0,
        0,
        0,
        0,
        0,
        0,
        0,
        0,
        0,
        0,
        0,
        0,
        0,
        0,
        9,
        0,
        0,
        0,
        0,
        0,
        0,
        0,
        14,
        0,
        0,
        0,
        0,
        0,
        0,
        0,
        14,
        0,
        0,
        0,
        0,
        0,
        0,
        0,
        0,
        0,
        0,
        0,
        0,
        0,
        0,
        0,
        0,
        9,
        0,
        0,
        0,
        0,
        0,
        9,
        15,
        10,
        0,
        0,
        0,
        0,
        0,
        10,
        15,
        0,
        0,
        0,
        0,
        0,
        0,
        0,
        0,
        0,
        0,
        0,
        0,
        0,
        0,
        0,
        9,
        0,
        0,
        0,
        0,
        0,
        0,
        0,
        14,
        0,
        0,
        0,
        0,
        0,
        0,
        0,
        14,
        0,
        0,
        0,
        0,
        0,
        0,
        0,
        0,
        0,
        0,
        0,
        0,
        0,
        0,
        0,
        0,
        9,
        0,
        0,
        0,
        0,
        0,
        9,
        15,
        10,
        0,
        0,
        0,
        0,
        0,
        10,
        15,
        0,
        0,
        0,
        0,
        0,
        0,
        0,
        0,
        0,
        0,
        0,
        0,
        0,
        0,
        0,
        9,
        0,
        0,
        0,
        0,
        0,
        0,
        0,
        14,
        0,
        0,
        0,
        0,
        0,
        0,
        0,
        14,
        0,
        0,
        0,
        0,
        0,
        0,
        0,
        0,
        0,
        0,
        0,
        0,
        0,
        0,
        0,
        0,
        9,
        9,
        9,
        25,
        9,
        9,
        9,
        15,
        10,
        10,
        10,
        26,
        10,
        10,
        10,
        15,
        0,
        0,
        0,
        47,
        0,
        0,
        0,
        0,
        0,
        0,
        0,
        0,
        0,
        0,
        0,
        9,
        0,
        0,
        0,
        0,
        0,
        0,
        0,
        14,
        14,
        14,
        14,
        14,
        14,
        14,
        14,
        14,
        0,
        0,
        0,
        0,
        0,
        0,
        0,
        0,
        0,
        0,
        0,
        0,
        0,
        0,
        0,
        0,
        0,
        0,
        0,
        0,
        0,
        0,
        0,
        15,
        15,
        15,
        15,
        15,
        15,
        15,
        15,
        15,
        0,
        0,
        0,
        0,
        0,
        42,
        0,
        0,
        0,
        43,
        0,
        0,
        0,
        0,
        0,
        9,
        0,
        0,
        0,
        0,
        0,
        0,
        0,
        0,
        0,
        0,
        0,
        0,
        0,
        0,
        0,
        9,
        0,
        0,
        0,
        0,
        0,
        0,
        0,
        0,
        0,
        0,
        0,
        0,
        0,
        0,
        0,
        0,
        23,
        23,
        23,
        23,
        23,
        23,
        23,
        0,
        17,
        17,
        17,
        17,
        17,
        17,
        17,
        0,
        0,
        0,
        0,
        0,
        0,
        0,
        0,
        0,
        0,
        0,
        0,
        0,
        0,
        0,
        0,
        9,
        0,
        0,
        0,
        0,
        0,
        0,
        0,
        0,
        0,
        0,
        0,
        0,
        0,
        0,
        0,
        9,
        0,
        0,
        0,
        0,
        0,
        0,
        0,
        0,
        0,
        0,
        0,
        0,
        0,
        0,
        0,
        0,
        24,
        24,
        24,
        24,
        24,
        24,
        24,
        0,
        18,
        18,
        18,
        18,
        18,
        18,
        18,
        0,
        0,
        0,
        0,
        0,
        0,
        0,
        0,
        0,
        0,
        0,
        0,
        0,
        0,
        0,
        0,
        9,
        0,
        0,
        0,
        0,
        0,
        0,
        0,
        0,
        0,
        0,
        0,
        0,
        0,
        0,
        0,
        9,
        0,
        0,
        0,
        0,
        0,
        0,
        0,
        0,
        0,
        0,
        0,
        0,
        0,
        0,
        0,
        0,
        11,
        0,
        0,
        0,
        0,
        0,
        11,
        0,
        12,
        0,
        0,
        0,
        0,
        0,
        12,
        0,
        0,
        0,
        0,
        0,
        0,
        0,
        0,
        0,
        0,
        0,
        0,
        0,
        0,
        0,
        0,
        9,
        0,
        0,
        0,
        0,
        0,
        0,
        0,
        0,
        0,
        0,
        0,
        0,
        0,
        0,
        0,
        9,
        0,
        0,
        0,
        0,
        0,
        0,
        0,
        0,
        0,
        0,
        0,
        0,
        0,
        0,
        0,
        0,
        11,
        0,
        0,
        0,
        0,
        0,
        11,
        0,
        12,
        0,
        0,
        0,
        0,
        0,
        12,
        0,
        0,
        0,
        0,
        0,
        0,
        0,
        0,
        0,
        0,
        0,
        0,
        0,
        0,
        0,
        0,
        9,
        0,
        0,
        0,
        0,
        0,
        0,
        0,
        0,
        0,
        0,
        0,
        0,
        0,
        0,
        0,
        9,
        0,
        0,
        0,
        0,
        0,
        0,
        0,
        0,
        0,
        0,
        0,
        0,
        0,
        0,
        0,
        0,
        11,
        0,
        0,
        0,
        0,
        0,
        11,
        0,
        12,
        0,
        0,
        0,
        0,
        0,
        12,
        0,
        0,
        0,
        0,
        41,
        0,
        0,
        0,
        0,
        0,
        0,
        0,
        0,
        0,
        0,
        0,
        9,
        0,
        0,
        0,
        0,
        0,
        0,
        0,
        0,
        0,
        0,
        0,
        0,
        0,
        0,
        0,
        9,
        0,
        0,
        0,
        0,
        0,
        0,
        0,
        0,
        0,
        0,
        0,
        0,
        0,
        0,
        0,
        0,
        11,
        0,
        0,
        0,
        0,
        0,
        11,
        0,
        12,
        0,
        0,
        0,
        0,
        0,
        12,
        0,
        0,
        0,
        0,
        0,
        0,
        0,
        0,
        0,
        0,
        0,
        0,
        0,
        0,
        0,
        0,
        9,
        0,
        0,
        0,
        0,
        0,
        0,
        0,
        0,
        0,
        0,
        0,
        0,
        0,
        0,
        0,
        9,
        0,
        0,
        0,
        0,
        0,
        0,
        0,
        0,
        0,
        0,
        0,
        0,
        0,
        0,
        0,
        0,
        11,
        11,
        11,
        25,
        11,
        11,
        11,
        0,
        12,
        12,
        12,
        26,
        12,
        12,
        12,
        0,
        0,
        0,
        0,
        0,
        0,
        0,
        0,
        0,
        0,
        0,
        0,
        0,
        0,
        0,
        0,
        9,
        9,
        9,
        9,
        9,
        9,
        9,
        9,
        25,
        9,
        9,
        9,
        9,
        9,
        9,
        9,
        9,
        0,
        0,
        0,
        0,
        0,
        0,
        0,
        0,
        0,
        0,
        0,
        0,
        0,
        0,
        0,
        19,
        19,
        19,
        19,
        19,
        19,
        19,
        19,
        19,
        19,
        19,
        19,
        19,
        19,
        19,
        19,
        19,
        0,
        0,
        0,
        0,
        0,
        0,
        0,
        0,
        0,
        0,
        0,
        0,
        0,
        0,
        0,
        0,
        0,
        0,
        0,
        0,
        0,
        0,
        0,
        0,
        0,
        0,
        0,
        0,
        0,
        0,
        0,
        0,
        0,
        0,
        0,
        0,
        0,
        0,
        0,
        0,
        0,
        0,
        0,
        0,
        0,
        0,
        0,
        20,
        20,
        20,
        20,
        20,
        20,
        20,
        20,
        20,
        20,
        20,
        20,
        20,
        20,
        20,
        20,
        20,
        0,
        0,
        0,
        0,
        0,
        0,
        0,
        0,
        0,
        0,
        0,
        0,
        0,
        0,
        0,
        0,
        0,
        0,
        0,
        0,
        0,
        0,
        0,
        0,
        0,
        0,
        0,
        0,
        0,
        0,
        0,
        0,
        0,
        33,
        0,
        0,
        0,
        0,
        0,
        0,
        0,
        0,
        0,
        0,
        0,
        33,
        0,
        13,
        0,
        0,
        0,
        0,
        0,
        0,
        0,
        0,
        0,
        0,
        0,
        0,
        0,
        0,
        0,
        13,
        0,
        0,
        0,
        0,
        0,
        0,
        0,
        0,
        0,
        0,
        42,
        0,
        0,
        0,
        0,
        0,
        0,
        0,
        0,
        0,
        0,
        0,
        0,
        0,
        0,
        0,
        0,
        0,
        0,
        0,
        0,
        0,
        0,
        0,
        0,
        0,
        0,
        0,
        0,
        0,
        0,
        0,
        0,
        0,
        0,
        0,
        0,
        13,
        0,
        0,
        0,
        0,
        0,
        0,
        0,
        0,
        0,
        0,
        0,
        0,
        0,
        0,
        0,
        13,
        0,
        0,
        0,
        0,
        0,
        0,
        0,
        0,
        0,
        0,
        0,
        0,
        0,
        0,
        0,
        0,
        0,
        0,
        0,
        0,
        0,
        0,
        0,
        0,
        0,
        0,
        0,
        0,
        0,
        0,
        0,
        0,
        0,
        0,
        0,
        0,
        0,
        0,
        0,
        0,
        0,
        0,
        0,
        0,
        0,
        0,
        0,
        13,
        0,
        0,
        0,
        0,
        0,
        0,
        0,
        66,
        0,
        0,
        0,
        0,
        0,
        0,
        0,
        13,
        0,
        0,
        0,
        0,
        0,
        0,
        0,
        0,
        0,
        0,
        0,
        0,
        0,
        0,
        0,
        0,
        0,
        0,
        0,
        0,
        0,
        0,
        0,
        0,
        0,
        0,
        0,
        0,
        0,
        0,
        0,
        0,
        0,
        0,
        0,
        0,
        0,
        0,
        0,
        0,
        0,
        0,
        0,
        0,
        0,
        0,
        0,
        13,
        0,
        0,
        0,
        0,
        0,
        0,
        0,
        0,
        0,
        0,
        0,
        0,
        0,
        0,
        0,
        13,
        0,
        0,
        0,
        0,
        0,
        0,
        0,
        0,
        0,
        0,
        0,
        0,
        0,
        0,
        0,
        0,
        0,
        0,
        0,
        0,
        0,
        0,
        0,
        0,
        0,
        0,
        0,
        0,
        0,
        0,
        0,
        0,
        0,
        0,
        0,
        0,
        0,
        13,
        13,
        13,
        13,
        13,
        0,
        0,
        0,
        0,
        0,
        13,
        0,
        0,
        0,
        0,
        0,
        0,
        0,
        0,
        0,
        0,
        0,
        0,
        0,
        0,
        0,
        13,
        0,
        0,
        0,
        0,
        0,
        0,
        0,
        0,
        0,
        0,
        0,
        0,
        0,
        0,
        0,
        0,
        0,
        0,
        0,
        0,
        0,
        0,
        0,
        0,
        0,
        0,
        0,
        0,
        0,
        0,
        0,
        0,
        0,
        0,
        0,
        0,
        0,
        13,
        13,
        0,
        13,
        13,
        0,
        0,
        0,
        0,
        0,
        13,
        0,
        0,
        0,
        0,
        0,
        0,
        0,
        0,
        0,
        0,
        0,
        0,
        0,
        0,
        0,
        13,
        0,
        0,
        0,
        0,
        0,
        0,
        0,
        0,
        0,
        0,
        0,
        0,
        0,
        0,
        0,
        0,
        0,
        0,
        0,
        0,
        0,
        0,
        0,
        0,
        0,
        0,
        0,
        0,
        0,
        0,
        0,
        0,
        0,
        0,
        0,
        0,
        0,
        13,
        13,
        0,
        0,
        13,
        0,
        0,
        0,
        0,
        0,
        13,
        13,
        13,
        13,
        13,
        13,
        13,
        13,
        13,
        13,
        13,
        13,
        13,
        13,
        13,
        13,
        13,
        0,
        0,
        0,
        0,
        0,
        0,
        0,
        0,
        0,
        0,
        0,
        0,
        0,
        0,
        0,
        0,
        0,
        0,
        0,
        0,
        0,
        0,
        0,
        0,
        0,
        0,
        0,
        0,
        0,
        0,
        0,
        0,
        0,
        0,
        0,
        0,
        0,
        13,
        13,
        13,
        13,
        13,
        0,
        0,
        0,
        0,
        0,
        0,
        0,
        0,
        0,
        0,
        0,
        0,
        0,
        0,
        0,
        0,
        0,
        0,
        0,
        0,
        0,
        0,
        0,
        0,
        0,
        0,
        0,
        0,
        0,
        0,
        0,
        0,
        0,
        0,
        0,
        0,
        0,
        0,
        0,
        0,
        0,
        0,
        0,
        0,
        0,
        0,
        0,
        0,
        0,
        0,
        0,
        0,
        0,
        0,
        0,
        0,
        0,
        0,
        0,
        13,
        13,
        13,
        13,
        13,
        0,
        0,
        0,
        0,
        0,
        0,
        0,
        0,
        0,
        0,
        0,
        0,
        0,
        0,
        0,
        0,
        0,
        0,
        0,
        0,
        0,
        0,
        0,
        0,
        0,
        0,
        0,
        0,
        0,
        0,
        0,
        0,
        0,
        0,
        0,
        0,
        0,
        0,
        0,
        0,
        0,
        0,
        0,
        0,
        0,
        0,
        0,
        0,
        0,
        0,
        0,
        0,
        0,
        0,
        0,
        0,
        0,
        0,
        0,
        0,
        0,
        0,
        0,
        0,
        0,
        0,
        0,
        0,
        0,
        0,
        0,
        0,
        0,
        0,
        0,
        0,
        0,
        0,
        0,
        0,
        0,
        0,
        0,
        0,
        0,
        0,
        0,
        0,
        0,
        0,
        0,
        0,
        0,
        0,
        0,
        0,
        0,
        0,
        0,
        0,
        0,
        0,
        0,
        0,
        0,
        0,
        0,
        0,
        0,
        0,
        0,
        0,
        0,
        0,
        0,
        0,
        0,
        0,
        0,
        0,
        0,
        0,
        0,
        0,
        0,
        0,
        0,
        0,
        0,
        0,
        0,
        0,
        0,
        0,
        0,
        0,
        0,
        0,
        0,
        0,
        0,
        0,
        0,
        0,
        0,
        0,
        0,
        0,
        0,
        0,
        0,
        0,
        0,
        0,
        0,
        0,
        0,
        0,
        0,
        0,
        0,
        0,
        0,
        0,
        0,
        0,
        0,
        0,
        0,
        0,
        0,
        0,
        0,
        0,
        0,
        0,
        0,
        0,
        0,
        0,
        0,
        0,
        0,
        0,
        0,
        0,
        0,
        0,
        0,
        0,
        0,
        0,
        0,
        0,
        0,
        0,
        0,
        0,
        0,
        0,
        0,
        0,
        0,
        0,
        0,
        0,
        0,
        0,
        0,
        0,
        0,
        0,
        0,
        0,
        0,
        0,
        0,
        0,
        0,
        0,
        0,
        0,
        0,
        0,
        0,
        0,
        0,
        0,
        0,
        0,
        0,
        0,
        0,
        0,
        0,
        0,
        0,
        0,
        0,
        0,
        0,
        0,
        0,
        0,
        0,
        0,
        0,
        33,
        0,
        0,
        0,
        0,
        0,
        0,
        0,
        0,
        0,
        0,
        0,
        33,
        0,
        0,
        0,
        0,
        0,
        0,
        0,
        0,
        0,
        0,
        0,
        0,
        0,
        0,
        0,
        0,
        0,
        0,
        0,
        0,
        0,
        0,
        0,
        0,
        46,
        0,
        0,
        0,
        0,
        0,
        0,
        0,
        0,
        0,
        0,
        0,
        0,
        0,
        0,
        0,
        0,
        0,
        0,
        0,
        0,
        0,
        0,
        0,
        0,
        0,
        0,
        0,
        0,
        0,
        0,
        0,
        0,
        0,
        0,
        0,
        0,
        0,
        0,
        0,
        0,
        0,
        0,
        0,
        0,
        0,
        0,
        0,
        0,
        0,
        0,
        0,
        0,
        0,
        0,
        0,
        0,
        0,
        0,
        0,
        0,
        0,
        0,
        0,
        0,
        0,
        0,
        0,
        0,
        0,
        0,
        0,
        0,
        23,
        23,
        23,
        23,
        23,
        23,
        23,
        23,
        23,
        23,
        23,
        23,
        23,
        23,
        23,
        23,
        23,
        0,
        0,
        0,
        0,
        0,
        0,
        0,
        0,
        0,
        0,
        0,
        0,
        0,
        0,
        0,
        18,
        18,
        18,
        18,
        18,
        18,
        18,
        18,
        18,
        18,
        18,
        18,
        18,
        18,
        18,
        18,
        18,
        0,
        0,
        0,
        0,
        0,
        0,
        0,
        0,
        0,
        0,
        0,
        0,
        0,
        0,
        0,
        24,
        24,
        24,
        24,
        24,
        24,
        24,
        24,
        24,
        24,
        24,
        24,
        24,
        24,
        24,
        24,
        24,
        0,
        0,
        0,
        0,
        0,
        0,
        0,
        0,
        0,
        0,
        0,
        0,
        0,
        0,
        0,
        19,
        19,
        19,
        19,
        19,
        19,
        19,
        19,
        19,
        19,
        19,
        19,
        19,
        19,
        19,
        19,
        19,
        0,
        0,
        0,
        0,
        0,
        0,
        0,
        0,
        0,
        0,
        0,
        0,
        0,
        0,
        0,
        11,
        0,
        0,
        0,
        0,
        0,
        0,
        0,
        0,
        0,
        0,
        0,
        0,
        0,
        0,
        0,
        11,
        0,
        0,
        0,
        21,
        21,
        21,
        21,
        21,
        21,
        21,
        21,
        21,
        0,
        0,
        0,
        16,
        0,
        0,
        0,
        0,
        0,
        0,
        0,
        0,
        0,
        0,
        0,
        0,
        0,
        0,
        0,
        16,
        0,
        0,
        0,
        0,
        0,
        0,
        0,
        0,
        0,
        0,
        0,
        0,
        0,
        0,
        0,
        11,
        0,
        0,
        0,
        0,
        0,
        0,
        0,
        0,
        0,
        0,
        0,
        0,
        0,
        0,
        0,
        11,
        0,
        0,
        0,
        22,
        22,
        22,
        22,
        22,
        22,
        22,
        22,
        22,
        0,
        0,
        0,
        16,
        0,
        0,
        0,
        0,
        0,
        0,
        0,
        0,
        0,
        0,
        0,
        0,
        0,
        0,
        0,
        16,
        0,
        0,
        0,
        0,
        0,
        0,
        0,
        0,
        0,
        0,
        0,
        0,
        0,
        0,
        0,
        11,
        0,
        0,
        0,
        0,
        0,
        0,
        0,
        0,
        0,
        0,
        0,
        0,
        0,
        0,
        0,
        11,
        0,
        0,
        0,
        13,
        0,
        0,
        0,
        0,
        0,
        0,
        0,
        13,
        0,
        0,
        0,
        16,
        0,
        0,
        0,
        0,
        0,
        0,
        0,
        0,
        0,
        0,
        0,
        0,
        0,
        0,
        0,
        16,
        0,
        0,
        0,
        0,
        0,
        0,
        0,
        0,
        0,
        0,
        0,
        0,
        0,
        0,
        0,
        11,
        0,
        0,
        0,
        0,
        0,
        0,
        0,
        0,
        0,
        0,
        0,
        0,
        0,
        0,
        0,
        11,
        0,
        0,
        0,
        13,
        0,
        0,
        0,
        0,
        0,
        0,
        0,
        13,
        0,
        0,
        0,
        16,
        0,
        0,
        0,
        0,
        0,
        0,
        0,
        0,
        0,
        0,
        0,
        0,
        0,
        0,
        0,
        16,
        0,
        0,
        0,
        0,
        0,
        0,
        0,
        42,
        0,
        0,
        0,
        0,
        0,
        0,
        0,
        11,
        0,
        0,
        0,
        0,
        0,
        0,
        0,
        0,
        0,
        0,
        0,
        0,
        0,
        0,
        0,
        11,
        0,
        0,
        0,
        13,
        13,
        13,
        13,
        35,
        13,
        13,
        13,
        13,
        0,
        0,
        0,
        16,
        0,
        0,
        0,
        0,
        0,
        0,
        0,
        0,
        0,
        0,
        0,
        0,
        0,
        0,
        0,
        16,
        0,
        0,
        0,
        0,
        0,
        0,
        0,
        0,
        0,
        0,
        0,
        0,
        44,
        0,
        0,
        11,
        0,
        0,
        0,
        0,
        0,
        0,
        0,
        0,
        0,
        0,
        0,
        0,
        0,
        0,
        0,
        11,
        0,
        0,
        0,
        0,
        0,
        0,
        0,
        0,
        0,
        0,
        0,
        0,
        0,
        0,
        0,
        16,
        0,
        0,
        0,
        0,
        0,
        0,
        0,
        0,
        0,
        0,
        0,
        0,
        0,
        0,
        0,
        16,
        0,
        0,
        0,
        0,
        0,
        0,
        0,
        0,
        0,
        0,
        0,
        0,
        0,
        0,
        0,
        11,
        0,
        0,
        0,
        0,
        0,
        0,
        0,
        67,
        0,
        0,
        0,
        0,
        0,
        0,
        0,
        11,
        0,
        0,
        42,
        0,
        0,
        0,
        0,
        0,
        0,
        0,
        0,
        0,
        0,
        47,
        0,
        16,
        0,
        0,
        0,
        0,
        0,
        0,
        0,
        68,
        0,
        0,
        0,
        0,
        0,
        0,
        0,
        16,
        0,
        0,
        0,
        0,
        0,
        0,
        0,
        0,
        0,
        0,
        0,
        0,
        0,
        0,
        0,
        11,
        0,
        0,
        0,
        0,
        0,
        0,
        0,
        0,
        0,
        0,
        0,
        0,
        0,
        0,
        0,
        11,
        0,
        0,
        0,
        0,
        0,
        0,
        0,
        0,
        0,
        0,
        0,
        0,
        0,
        0,
        0,
        16,
        0,
        0,
        0,
        0,
        0,
        0,
        0,
        0,
        0,
        0,
        0,
        0,
        0,
        0,
        0,
        16,
        0,
        0,
        0,
        0,
        0,
        0,
        0,
        0,
        0,
        0,
        0,
        0,
        0,
        0,
        0,
        11,
        0,
        0,
        0,
        0,
        0,
        0,
        0,
        0,
        0,
        0,
        0,
        0,
        0,
        0,
        0,
        11,
        0,
        0,
        0,
        0,
        0,
        0,
        0,
        0,
        0,
        0,
        0,
        0,
        0,
        0,
        0,
        16,
        0,
        0,
        0,
        0,
        0,
        0,
        0,
        0,
        0,
        0,
        0,
        0,
        0,
        0,
        0,
        16,
        0,
        0,
        0,
        0,
        0,
        0,
        44,
        0,
        0,
        0,
        47,
        0,
        0,
        0,
        0,
        11,
        0,
        0,
        0,
        0,
        0,
        0,
        0,
        0,
        0,
        0,
        0,
        0,
        0,
        0,
        0,
        11,
        0,
        0,
        0,
        0,
        0,
        0,
        0,
        0,
        0,
        0,
        0,
        0,
        0,
        0,
        0,
        16,
        0,
        0,
        0,
        0,
        0,
        0,
        0,
        0,
        0,
        0,
        0,
        0,
        0,
        0,
        0,
        16,
        0,
        0,
        0,
        0,
        0,
        0,
        0,
        0,
        0,
        0,
        0,
        0,
        0,
        0,
        0,
        11,
        0,
        0,
        0,
        0,
        0,
        0,
        0,
        0,
        0,
        0,
        0,
        0,
        0,
        0,
        0,
        11,
        0,
        0,
        0,
        0,
        0,
        0,
        0,
        0,
        0,
        0,
        0,
        0,
        0,
        0,
        0,
        16,
        0,
        0,
        0,
        0,
        0,
        0,
        0,
        0,
        0,
        0,
        0,
        0,
        0,
        0,
        0,
        16,
        0,
        0,
        0,
        0,
        0,
        0,
        0,
        0,
        0,
        0,
        0,
        0,
        0,
        0,
        0,
        11,
        0,
        0,
        0,
        0,
        0,
        0,
        0,
        0,
        0,
        0,
        0,
        0,
        0,
        0,
        0,
        11,
        0,
        0,
        0,
        0,
        0,
        0,
        0,
        0,
        0,
        0,
        0,
        0,
        0,
        0,
        0,
        16,
        0,
        0,
        0,
        0,
        0,
        0,
        0,
        0,
        0,
        0,
        0,
        0,
        0,
        0,
        0,
        16,
        0,
        0,
        0,
        0,
        0,
        0,
        0,
        0,
        0,
        0,
        0,
        0,
        0,
        0,
        0,
        11,
        0,
        0,
        0,
        0,
        0,
        0,
        0,
        0,
        0,
        0,
        0,
        0,
        0,
        0,
        0,
        11,
        0,
        0,
        0,
        0,
        0,
        0,
        0,
        0,
        0,
        0,
        0,
        0,
        0,
        0,
        0,
        16,
        0,
        0,
        0,
        0,
        0,
        0,
        0,
        0,
        0,
        0,
        0,
        0,
        0,
        0,
        0,
        16,
        0,
        0,
        0,
        0,
        0,
        0,
        0,
        0,
        0,
        0,
        0,
        0,
        0,
        0,
        0,
        11,
        0,
        0,
        0,
        0,
        0,
        0,
        0,
        0,
        0,
        0,
        0,
        0,
        0,
        0,
        0,
        11,
        0,
        0,
        0,
        0,
        0,
        0,
        0,
        0,
        0,
        0,
        0,
        0,
        0,
        0,
        0,
        16,
        0,
        0,
        0,
        0,
        0,
        0,
        0,
        0,
        0,
        0,
        0,
        0,
        0,
        0,
        0,
        16,
        0,
        0,
        0,
        0,
        0,
        0,
        0,
        0,
        0,
        0,
        0,
        0,
        0,
        0,
        0,
        11,
        11,
        11,
        11,
        11,
        11,
        11,
        11,
        11,
        11,
        11,
        11,
        11,
        11,
        11,
        11,
        11,
        0,
        0,
        0,
        0,
        0,
        0,
        0,
        0,
        0,
        0,
        0,
        0,
        0,
        0,
        0,
        16,
        16,
        16,
        16,
        16,
        16,
        16,
        16,
        16,
        16,
        16,
        16,
        16,
        16,
        16,
        16,
        16,
        0,
        0,
        0,
        0,
        0,
        0,
        0,
        0,
        0,
        0,
        0,
        0,
        0,
        0,
        0,
        0,
        0,
        0,
        0,
        0,
        0,
        0,
        0,
        0,
        0,
        0,
        0,
        0,
        0,
        0,
        0,
        0,
        0,
        0,
        0,
        0,
        0,
        0,
        0,
        0,
        0,
        0,
        0,
        0,
        0,
        0,
        0,
        0,
        0,
        0,
        0,
        0,
        0,
        0,
        0,
        0,
        0,
        0,
        0,
        0,
        0,
        0,
        0,
        0,
        0,
        0,
        0,
        0,
        0,
        0,
        0,
        0,
        0,
        0,
        0,
        0,
        0,
        0,
        0,
        0,
        0,
        0,
        0,
        0,
        0,
        0,
        0,
        0,
        0,
        0,
        0,
        0,
        0,
        0,
        0,
        0,
        0,
        0,
        0,
        0,
        0,
        0,
        0,
        0,
        0,
        0,
        0,
        0,
        0,
        0,
        0,
        0,
        0,
        0,
        0,
        0,
        0,
        0,
        0,
        0,
        0,
        0,
        0,
        0,
        0,
        0,
        0,
        0,
        0,
        0,
        0,
        0,
        0,
        0,
        0,
        0,
        0,
        0,
        0,
        0,
        0,
        0,
        0,
        0,
        0,
        0,
        0,
        0,
        0,
        0,
        0,
        0,
        0,
        0,
        0,
        0,
        0,
        0,
        0,
        0,
        0,
        0,
        0,
        0,
        0,
        0,
        0,
        71,
        0,
        0,
        0,
        0,
        0,
        0,
        0,
        0,
        0,
        0,
        0,
        0,
        0,
        0,
        0,
        0,
        0,
        0,
        0,
        0,
        0,
        0,
        0,
        0,
        0,
        0,
        0,
        0,
        0,
        0,
        0,
        0,
        0,
        0,
        0,
        0,
        0,
        0,
        0,
        0,
        0,
        0,
        0,
        0,
        0,
        0,
        0,
        0,
        0,
        0,
        0,
        0,
        0,
        0,
        0,
        0,
        0,
        0,
        0,
        0,
        0,
        0,
        0,
        0,
        0,
        0,
        0,
        0,
        0,
        0,
        0,
        0,
        0,
        0,
        0,
        0,
        0,
        0,
        0,
        0,
        0,
        0,
        0,
        0,
        0,
        0,
        0,
        0,
        0,
        0,
        0,
        0,
        0,
        0,
        0,
        0,
        0,
        0,
        0,
        0,
        0,
        0,
        0,
        0,
        0,
        0,
        0,
        42,
        0,
        0,
        0,
        0,
        0,
        0,
        0,
        0,
        0,
        0,
        0,
        0,
        0,
        0,
        0,
        0,
        0,
        0,
        0,
        0,
        0,
        0,
        0,
        0,
        0,
        0,
        0,
        0,
        0,
        0,
        0,
        0,
        0,
        0,
        0,
        0,
        0,
        0,
        0,
        0,
        0,
        0,
        0,
        0,
        0,
        0,
        0,
        0,
        0,
        0,
        0,
        0,
        0,
        0,
        0,
        0,
        0,
        0,
        0,
        0,
        0,
        0,
        0,
        0,
        0,
        0,
        0,
        0,
        0,
        0,
        0,
        0,
        0,
        0,
        0,
        0,
        0,
        0,
        0,
        0,
        0,
        0,
        0,
        0,
        0,
        0,
        0,
        0,
        0,
        0,
        0,
        0,
        0,
        0,
        0,
        0,
        0,
        0,
        0,
        0,
        0,
        0,
        0,
        0,
        0,
        0,
        0,
        0,
        0,
        0,
        0,
        0,
        0,
        0,
        0,
        0,
        0,
        0,
        0,
        0,
        0,
        0,
        0,
        0,
        0,
        0,
        0,
        0,
        0,
        0,
        0,
        0,
        0,
        0,
        0,
        0,
        0,
        0,
        0,
        0,
        0,
        0,
        0,
        0,
        0,
        0,
        0,
        0,
        0,
        0,
        0,
        0,
        0,
        0,
        0,
        0,
        0,
        0,
        0,
        0,
        0,
        0,
        0,
        0,
        0,
        0,
        0,
        0,
        0,
        0,
        0,
        0,
        0,
        0,
        0,
        0,
        0,
        0,
        0
      ]
    }
  ],
  "tilesets": [
    {
      "columns": 8,
      "firstgid": 1,
      "image": "tileset_main.png",
      "imageheight": 256,
      "imagewidth": 256,
      "margin": 0,
      "name": "tileset_main",
      "spacing": 0,
      "tilecount": 64,
      "tileheight": 32,
      "tilewidth": 32,
      "tiles": [
        {
          "id": 8,
          "properties": [
            {
              "name": "collide",
              "type": "bool",
              "value": true
            }
          ]
        },
        {
          "id": 9,
          "properties": [
            {
              "name": "collide",
              "type": "bool",
              "value": true
            }
          ]
        },
        {
          "id": 10,
          "properties": [
            {
              "name": "collide",
              "type": "bool",
              "value": true
            }
          ]
        },
        {
          "id": 11,
          "properties": [
            {
              "name": "collide",
              "type": "bool",
              "value": true
            }
          ]
        },
        {
          "id": 12,
          "properties": [
            {
              "name": "collide",
              "type": "bool",
              "value": true
            }
          ]
        },
        {
          "id": 13,
          "properties": [
            {
              "name": "collide",
              "type": "bool",
              "value": true
            }
          ]
        },
        {
          "id": 14,
          "properties": [
            {
              "name": "collide",
              "type": "bool",
              "value": true
            }
          ]
        },
        {
          "id": 15,
          "properties": [
            {
              "name": "collide",
              "type": "bool",
              "value": true
            }
          ]
        },
        {
          "id": 16,
          "properties": [
            {
              "name": "collide",
              "type": "bool",
              "value": true
            }
          ]
        },
        {
          "id": 17,
          "properties": [
            {
              "name": "collide",
              "type": "bool",
              "value": true
            }
          ]
        },
        {
          "id": 18,
          "properties": [
            {
              "name": "collide",
              "type": "bool",
              "value": true
            }
          ]
        },
        {
          "id": 19,
          "properties": [
            {
              "name": "collide",
              "type": "bool",
              "value": true
            }
          ]
        },
        {
          "id": 20,
          "properties": [
            {
              "name": "collide",
              "type": "bool",
              "value": true
            }
          ]
        },
        {
          "id": 21,
          "properties": [
            {
              "name": "collide",
              "type": "bool",
              "value": true
            }
          ]
        },
        {
          "id": 22,
          "properties": [
            {
              "name": "collide",
              "type": "bool",
              "value": true
            }
          ]
        },
        {
          "id": 23,
          "properties": [
            {
              "name": "collide",
              "type": "bool",
              "value": true
            }
          ]
        },
        {
          "id": 24,
          "properties": [
            {
              "name": "collide",
              "type": "bool",
              "value": true
            }
          ]
        },
        {
          "id": 25,
          "properties": [
            {
              "name": "collide",
              "type": "bool",
              "value": true
            }
          ]
        },
        {
          "id": 26,
          "properties": [
            {
              "name": "collide",
              "type": "bool",
              "value": true
            }
          ]
        },
        {
          "id": 27,
          "properties": [
            {
              "name": "collide",
              "type": "bool",
              "value": true
            }
          ]
        },
        {
          "id": 28,
          "properties": [
            {
              "name": "collide",
              "type": "bool",
              "value": true
            }
          ]
        },
        {
          "id": 29,
          "properties": [
            {
              "name": "collide",
              "type": "bool",
              "value": true
            }
          ]
        },
        {
          "id": 30,
          "properties": [
            {
              "name": "collide",
              "type": "bool",
              "value": true
            }
          ]
        },
        {
          "id": 31,
          "properties": [
            {
              "name": "collide",
              "type": "bool",
              "value": true
            }
          ]
        },
        {
          "id": 32,
          "properties": [
            {
              "name": "collide",
              "type": "bool",
              "value": true
            }
          ]
        },
        {
          "id": 33,
          "properties": [
            {
              "name": "collide",
              "type": "bool",
              "value": true
            }
          ]
        },
        {
          "id": 34,
          "properties": [
            {
              "name": "collide",
              "type": "bool",
              "value": true
            }
          ]
        },
        {
          "id": 35,
          "properties": [
            {
              "name": "collide",
              "type": "bool",
              "value": true
            }
          ]
        },
        {
          "id": 36,
          "properties": [
            {
              "name": "collide",
              "type": "bool",
              "value": true
            }
          ]
        },
        {
          "id": 37,
          "properties": [
            {
              "name": "collide",
              "type": "bool",
              "value": true
            }
          ]
        },
        {
          "id": 38,
          "properties": [
            {
              "name": "collide",
              "type": "bool",
              "value": true
            }
          ]
        },
        {
          "id": 39,
          "properties": [
            {
              "name": "collide",
              "type": "bool",
              "value": true
            }
          ]
        },
        {
          "id": 40,
          "properties": [
            {
              "name": "collide",
              "type": "bool",
              "value": true
            }
          ]
        },
        {
          "id": 41,
          "properties": [
            {
              "name": "collide",
              "type": "bool",
              "value": true
            }
          ]
        },
        {
          "id": 42,
          "properties": [
            {
              "name": "collide",
              "type": "bool",
              "value": true
            }
          ]
        },
        {
          "id": 43,
          "properties": [
            {
              "name": "collide",
              "type": "bool",
              "value": true
            }
          ]
        },
        {
          "id": 44,
          "properties": [
            {
              "name": "collide",
              "type": "bool",
              "value": true
            }
          ]
        },
        {
          "id": 45,
          "properties": [
            {
              "name": "collide",
              "type": "bool",
              "value": true
            }
          ]
        },
        {
          "id": 46,
          "properties": [
            {
              "name": "collide",
              "type": "bool",
              "value": true
            }
          ]
        },
        {
          "id": 47,
          "properties": [
            {
              "name": "collide",
              "type": "bool",
              "value": true
            }
          ]
        }
      ]
    },
    {
      "columns": 0,
      "firstgid": 65,
      "grid": {
        "height": 1,
        "orientation": "orthogonal",
        "width": 1
      },
      "margin": 0,
      "name": "landmarks",
      "spacing": 0,
      "tilecount": 7,
      "tileheight": 32,
      "tilewidth": 32,
      "tiles": [
        {
          "id": 0,
          "image": "landmarks/landmark_convention_arch.png",
          "imagewidth": 32,
          "imageheight": 32,
          "properties": [
            {
              "name": "collide",
              "type": "bool",
              "value": true
            },
            {
              "name": "landmark_for_zone",
              "type": "string",
              "value": "Convention_Plaza"
            }
          ]
        },
        {
          "id": 1,
          "image": "landmarks/landmark_cos_studio_reflector.png",
          "imagewidth": 32,
          "imageheight": 32,
          "properties": [
            {
              "name": "collide",
              "type": "bool",
              "value": true
            },
            {
              "name": "landmark_for_zone",
              "type": "string",
              "value": "Cos_Studio"
            }
          ]
        },
        {
          "id": 2,
          "image": "landmarks/landmark_goods_shelf.png",
          "imagewidth": 32,
          "imageheight": 32,
          "properties": [
            {
              "name": "collide",
              "type": "bool",
              "value": true
            },
            {
              "name": "landmark_for_zone",
              "type": "string",
              "value": "Goods_Bazaar"
            }
          ]
        },
        {
          "id": 3,
          "image": "landmarks/landmark_doujin_easel.png",
          "imagewidth": 32,
          "imageheight": 32,
          "properties": [
            {
              "name": "collide",
              "type": "bool",
              "value": true
            },
            {
              "name": "landmark_for_zone",
              "type": "string",
              "value": "Doujin_Atelier"
            }
          ]
        },
        {
          "id": 4,
          "image": "landmarks/landmark_newbie_signpost.png",
          "imagewidth": 32,
          "imageheight": 32,
          "properties": [
            {
              "name": "collide",
              "type": "bool",
              "value": true
            },
            {
              "name": "landmark_for_zone",
              "type": "string",
              "value": "Newbie_Lobby"
            }
          ]
        },
        {
          "id": 5,
          "image": "landmarks/landmark_limited_sniper_tower.png",
          "imagewidth": 32,
          "imageheight": 32,
          "properties": [
            {
              "name": "collide",
              "type": "bool",
              "value": true
            },
            {
              "name": "landmark_for_zone",
              "type": "string",
              "value": "Limited_Info_House"
            }
          ]
        },
        {
          "id": 6,
          "image": "landmarks/landmark_buzz_tv_wall.png",
          "imagewidth": 32,
          "imageheight": 32,
          "properties": [
            {
              "name": "collide",
              "type": "bool",
              "value": true
            },
            {
              "name": "landmark_for_zone",
              "type": "string",
              "value": "Buzz_Square"
            }
          ]
        }
      ]
    }
  ],
  "properties": [
    {
      "name": "zone_Plaza_x_min",
      "type": "int",
      "value": 24
    },
    {
      "name": "zone_Plaza_y_min",
      "type": "int",
      "value": 24
    },
    {
      "name": "zone_Plaza_x_max",
      "type": "int",
      "value": 40
    },
    {
      "name": "zone_Plaza_y_max",
      "type": "int",
      "value": 40
    },
    {
      "name": "zone_Cafe_x_min",
      "type": "int",
      "value": 8
    },
    {
      "name": "zone_Cafe_y_min",
      "type": "int",
      "value": 8
    },
    {
      "name": "zone_Cafe_x_max",
      "type": "int",
      "value": 24
    },
    {
      "name": "zone_Cafe_y_max",
      "type": "int",
      "value": 24
    },
    {
      "name": "zone_Houses_x_min",
      "type": "int",
      "value": 40
    },
    {
      "name": "zone_Houses_y_min",
      "type": "int",
      "value": 8
    },
    {
      "name": "zone_Houses_x_max",
      "type": "int",
      "value": 56
    },
    {
      "name": "zone_Houses_y_max",
      "type": "int",
      "value": 24
    },
    {
      "name": "zone_Notice_Board_x_min",
      "type": "int",
      "value": 28
    },
    {
      "name": "zone_Notice_Board_y_min",
      "type": "int",
      "value": 42
    },
    {
      "name": "zone_Notice_Board_x_max",
      "type": "int",
      "value": 36
    },
    {
      "name": "zone_Notice_Board_y_max",
      "type": "int",
      "value": 46
    },
    {
      "name": "zone_Convention_Plaza_x_min",
      "type": "int",
      "value": 24
    },
    {
      "name": "zone_Convention_Plaza_y_min",
      "type": "int",
      "value": 0
    },
    {
      "name": "zone_Convention_Plaza_x_max",
      "type": "int",
      "value": 40
    },
    {
      "name": "zone_Convention_Plaza_y_max",
      "type": "int",
      "value": 8
    },
    {
      "name": "zone_Cos_Studio_x_min",
      "type": "int",
      "value": 40
    },
    {
      "name": "zone_Cos_Studio_y_min",
      "type": "int",
      "value": 24
    },
    {
      "name": "zone_Cos_Studio_x_max",
      "type": "int",
      "value": 56
    },
    {
      "name": "zone_Cos_Studio_y_max",
      "type": "int",
      "value": 32
    },
    {
      "name": "zone_Goods_Bazaar_x_min",
      "type": "int",
      "value": 8
    },
    {
      "name": "zone_Goods_Bazaar_y_min",
      "type": "int",
      "value": 40
    },
    {
      "name": "zone_Goods_Bazaar_x_max",
      "type": "int",
      "value": 24
    },
    {
      "name": "zone_Goods_Bazaar_y_max",
      "type": "int",
      "value": 56
    },
    {
      "name": "zone_Doujin_Atelier_x_min",
      "type": "int",
      "value": 40
    },
    {
      "name": "zone_Doujin_Atelier_y_min",
      "type": "int",
      "value": 40
    },
    {
      "name": "zone_Doujin_Atelier_x_max",
      "type": "int",
      "value": 56
    },
    {
      "name": "zone_Doujin_Atelier_y_max",
      "type": "int",
      "value": 56
    },
    {
      "name": "zone_Newbie_Lobby_x_min",
      "type": "int",
      "value": 16
    },
    {
      "name": "zone_Newbie_Lobby_y_min",
      "type": "int",
      "value": 8
    },
    {
      "name": "zone_Newbie_Lobby_x_max",
      "type": "int",
      "value": 24
    },
    {
      "name": "zone_Newbie_Lobby_y_max",
      "type": "int",
      "value": 16
    },
    {
      "name": "zone_Limited_Info_House_x_min",
      "type": "int",
      "value": 48
    },
    {
      "name": "zone_Limited_Info_House_y_min",
      "type": "int",
      "value": 8
    },
    {
      "name": "zone_Limited_Info_House_x_max",
      "type": "int",
      "value": 56
    },
    {
      "name": "zone_Limited_Info_House_y_max",
      "type": "int",
      "value": 16
    },
    {
      "name": "zone_Buzz_Square_x_min",
      "type": "int",
      "value": 24
    },
    {
      "name": "zone_Buzz_Square_y_min",
      "type": "int",
      "value": 56
    },
    {
      "name": "zone_Buzz_Square_x_max",
      "type": "int",
      "value": 40
    },
    {
      "name": "zone_Buzz_Square_y_max",
      "type": "int",
      "value": 63
    }
  ]
}